;FLAVOR:UltiGCode
;TIME:619
;MATERIAL:401
;MATERIAL2:0
;NOZZLE_DIAMETER:0.600000
;NOZZLE_DIAMETER2:0.600000

;Layer count: 112
;LAYER:0
M106 S255
G10
G1 Z1.000
G0 F6000 X108.875 Y109.171 Z0.300
;TYPE:WALL-OUTER
G1 Z0.300
G11
G1 F1080 X109.191 Y108.859 E0.07993
G1 X109.514 Y108.608 E0.15356
G1 X109.875 Y108.390 E0.22947
G1 X110.255 Y108.219 E0.30448
G1 X110.657 Y108.094 E0.38026
G1 X111.069 Y108.017 E0.45570
G1 X111.506 Y107.991 E0.53450
G1 X111.950 Y108.020 E0.61459
G1 X112.359 Y108.097 E0.68950
G1 X112.744 Y108.218 E0.76215
G1 X113.153 Y108.405 E0.84310
G1 X113.496 Y108.614 E0.91539
G1 X113.852 Y108.898 E0.99737
G1 X114.136 Y109.184 E1.06992
G1 X114.385 Y109.502 E1.14262
G1 X114.619 Y109.894 E1.22479
G1 X114.784 Y110.263 E1.29755
G1 X114.907 Y110.653 E1.37116
G1 X114.985 Y111.080 E1.44929
G1 X115.010 Y111.499 E1.52484
G1 X114.982 Y111.942 E1.60474
G1 X114.908 Y112.343 E1.67814
G1 X114.770 Y112.772 E1.75926
G1 X114.579 Y113.181 E1.84051
G1 X114.371 Y113.517 E1.91164
G1 X114.110 Y113.846 E1.98723
G1 X113.825 Y114.129 E2.05953
G1 X113.468 Y114.406 E2.14086
G1 X113.124 Y114.611 E2.21294
G1 X112.713 Y114.792 E2.29378
G1 X112.317 Y114.913 E2.36831
G1 X111.929 Y114.984 E2.43931
G1 X111.465 Y115.009 E2.52295
G1 X111.073 Y114.985 E2.59365
G1 X110.626 Y114.898 E2.67562
G1 X110.235 Y114.774 E2.74945
G1 X109.870 Y114.608 E2.82163
G1 X109.481 Y114.370 E2.90371
G1 X109.164 Y114.119 E2.97649
G1 X108.853 Y113.803 E3.05630
G1 X108.602 Y113.479 E3.13007
G1 X108.391 Y113.128 E3.20379
G1 X108.211 Y112.723 E3.28357
G1 X108.090 Y112.327 E3.35810
G1 X108.017 Y111.928 E3.43111
G1 X107.992 Y111.474 E3.51295
G1 X108.015 Y111.081 E3.58382
G1 X108.100 Y110.633 E3.66589
G1 X108.223 Y110.246 E3.73899
G1 X108.409 Y109.842 E3.81905
G1 X108.625 Y109.489 E3.89354
G1 X108.875 Y109.171 E3.96635
G0 F6000 X109.903 Y110.171
G1 F1080 X109.698 Y110.468 E4.03131
G1 X109.547 Y110.789 E4.09516
G1 X109.454 Y111.139 E4.16035
G1 X109.421 Y111.500 E4.22560
G1 X109.455 Y111.868 E4.29212
G1 X109.549 Y112.219 E4.35752
G1 X109.704 Y112.547 E4.42283
G1 X109.912 Y112.842 E4.48780
G1 X110.171 Y113.098 E4.55335
G1 X110.468 Y113.303 E4.61831
G1 X110.789 Y113.454 E4.68216
G1 X111.140 Y113.548 E4.74757
G1 X111.500 Y113.579 E4.81261
G1 X111.868 Y113.546 E4.87911
G1 X112.219 Y113.452 E4.94452
G1 X112.547 Y113.297 E5.00982
G1 X112.842 Y113.089 E5.07479
G1 X113.098 Y112.830 E5.14034
G1 X113.303 Y112.534 E5.20515
G1 X113.454 Y112.212 E5.26917
G1 X113.548 Y111.861 E5.33457
G1 X113.579 Y111.500 E5.39979
G1 X113.546 Y111.133 E5.46612
G1 X113.452 Y110.782 E5.53152
G1 X113.297 Y110.455 E5.59666
G1 X113.089 Y110.160 E5.66163
G1 X112.830 Y109.903 E5.72731
G1 X112.534 Y109.698 E5.79212
G1 X112.212 Y109.547 E5.85614
G1 X111.862 Y109.454 E5.92132
G1 X111.500 Y109.421 E5.98675
G1 X111.133 Y109.455 E6.05310
G1 X110.782 Y109.549 E6.11850
G1 X110.455 Y109.704 E6.18364
G1 X110.160 Y109.912 E6.24861
G1 X109.903 Y110.171 E6.31429
G0 F6000 X109.666 Y110.090
;TYPE:SKIN
G1 F1080 X109.201 Y109.201 E6.48645
G1 X110.359 Y109.510 E6.65832
G1 X110.214 Y108.517 E6.83925
G1 X111.318 Y109.197 E7.07265
G0 F6000 X111.218 Y108.248
G1 F1080 X112.288 Y109.318 E7.34502
G0 F6000 X112.113 Y108.295
G1 F1080 X114.705 Y110.887 E8.00484
G0 F6000 X114.751 Y111.781
G1 F1080 X113.682 Y110.712 E8.27696
G0 F6000 X113.803 Y111.681
G1 F1080 X114.482 Y112.785 E8.48187
G1 X113.488 Y112.639 E8.66332
G1 X113.797 Y113.797 E8.83554
G1 X112.641 Y113.489 E9.00710
G1 X112.784 Y114.481 E9.18750
G1 X111.681 Y113.803 E9.42055
G0 F6000 X111.780 Y114.749
G1 F1080 X110.711 Y113.681 E9.69255
G0 F6000 X110.884 Y114.703
G1 F1080 X108.294 Y112.113 E10.35185
G0 F6000 X108.246 Y111.216
G1 F1080 X109.318 Y112.287 E10.62461
G0 F6000 X109.197 Y111.319
G1 F1080 X108.517 Y110.213 E10.82988
G1 X109.356 Y110.629 E10.99844
;LAYER:1
G0 F6000 X109.545 Y110.799 Z0.400
;TYPE:WALL-OUTER
G1 F720 X109.454 Y111.139 E11.01956
G1 X109.421 Y111.501 E11.04137
G1 X109.456 Y111.872 E11.06373
G1 X109.552 Y112.221 E11.08545
G1 X109.706 Y112.549 E11.10719
G1 X109.914 Y112.844 E11.12885
G1 X110.173 Y113.100 E11.15070
G1 X110.471 Y113.306 E11.17243
G1 X110.799 Y113.456 E11.19407
G1 X111.140 Y113.548 E11.21526
G1 X111.501 Y113.579 E11.23700
G1 X111.872 Y113.545 E11.25936
G1 X112.221 Y113.449 E11.28107
G1 X112.549 Y113.295 E11.30282
G1 X112.844 Y113.087 E11.32447
G1 X113.100 Y112.828 E11.34632
G1 X113.306 Y112.531 E11.36801
G1 X113.456 Y112.202 E11.38970
G1 X113.548 Y111.861 E11.41090
G1 X113.579 Y111.499 E11.43270
G1 X113.545 Y111.129 E11.45499
G1 X113.449 Y110.779 E11.47676
G1 X113.295 Y110.453 E11.49840
G1 X113.087 Y110.158 E11.52005
G1 X112.828 Y109.901 E11.54195
G1 X112.531 Y109.695 E11.56363
G1 X112.202 Y109.545 E11.58533
G1 X111.862 Y109.454 E11.60645
G1 X111.499 Y109.421 E11.62832
G1 X111.129 Y109.456 E11.65062
G1 X110.779 Y109.552 E11.67239
G1 X110.453 Y109.706 E11.69402
G1 X110.158 Y109.914 E11.71568
G1 X109.901 Y110.173 E11.73757
G1 X109.695 Y110.471 E11.75931
G1 X109.545 Y110.799 E11.78095
G0 F6000 X108.222 Y110.246
G1 F720 X108.415 Y109.831 E11.80841
G1 X108.626 Y109.488 E11.83257
G1 X108.875 Y109.172 E11.85671
G1 X109.203 Y108.849 E11.88433
G1 X109.517 Y108.606 E11.90816
G1 X109.916 Y108.371 E11.93594
G1 X110.271 Y108.214 E11.95923
G1 X110.666 Y108.092 E11.98403
G1 X111.072 Y108.017 E12.00881
G1 X111.517 Y107.992 E12.03555
G1 X111.963 Y108.022 E12.06237
G1 X112.365 Y108.099 E12.08693
G1 X112.741 Y108.217 E12.11057
G1 X113.163 Y108.411 E12.13844
G1 X113.504 Y108.619 E12.16241
G1 X113.853 Y108.898 E12.18921
G1 X114.144 Y109.193 E12.21408
G1 X114.386 Y109.503 E12.23767
G1 X114.623 Y109.901 E12.26547
G1 X114.786 Y110.267 E12.28951
G1 X114.917 Y110.702 E12.31676
G1 X114.986 Y111.090 E12.34041
G1 X115.009 Y111.506 E12.36541
G1 X114.981 Y111.949 E12.39204
G1 X114.908 Y112.341 E12.41596
G1 X114.768 Y112.780 E12.44361
G1 X114.568 Y113.197 E12.47136
G1 X114.356 Y113.538 E12.49545
G1 X114.109 Y113.848 E12.51923
G1 X113.820 Y114.134 E12.54363
G1 X113.465 Y114.408 E12.57054
G1 X113.119 Y114.614 E12.59470
G1 X112.697 Y114.797 E12.62229
G1 X112.312 Y114.914 E12.64644
G1 X111.921 Y114.985 E12.67028
G1 X111.500 Y115.010 E12.69559
G1 X111.061 Y114.983 E12.72198
G1 X110.620 Y114.897 E12.74893
G1 X110.226 Y114.770 E12.77377
G1 X109.866 Y114.606 E12.79751
G1 X109.504 Y114.387 E12.82289
G1 X109.167 Y114.121 E12.84865
G1 X108.842 Y113.789 E12.87653
G1 X108.598 Y113.471 E12.90058
G1 X108.392 Y113.130 E12.92448
G1 X108.207 Y112.708 E12.95213
G1 X108.090 Y112.324 E12.97621
G1 X108.017 Y111.932 E13.00014
G1 X107.992 Y111.473 E13.02772
G1 X108.012 Y111.127 E13.04851
G1 X108.095 Y110.655 E13.07727
G1 X108.222 Y110.246 E13.10296
G0 F6000 X108.747 Y109.748
;TYPE:SKIN
G1 F720 X109.750 Y108.745 E13.18807
G0 F6000 X110.930 Y109.262
G1 F720 X111.933 Y108.259 E13.27318
G0 F6000 X112.613 Y108.427
G1 F720 X112.154 Y109.310 E13.33966
G1 X113.430 Y108.883 E13.39940
G1 X113.201 Y109.961 E13.45637
G1 X114.247 Y109.763 E13.51429
G1 X113.752 Y111.107 E13.57573
G1 X114.645 Y110.638 E13.63625
G0 F6000 X114.759 Y111.372
G1 F720 X113.541 Y112.591 E13.73964
G0 F6000 X114.661 Y112.319
G1 F720 X112.321 Y114.659 E13.93820
G0 F6000 X111.370 Y114.762
G1 F720 X112.594 Y113.538 E14.04206
G0 F6000 X111.468 Y113.815
G1 F720 X110.328 Y114.530 E14.11271
G1 X110.466 Y113.544 E14.17404
G1 X109.284 Y113.877 E14.23188
G1 X109.572 Y112.741 E14.28872
G1 X108.567 Y112.897 E14.34831
G1 X109.211 Y111.830 E14.42309
G0 F6000 X109.260 Y110.932
G1 F720 X108.261 Y111.931 E14.50786
G0 F6000 X108.262 Y111.082
G1 F720 X111.087 Y108.257 E14.74757
;LAYER:2
G0 F6000 X111.122 Y108.013 Z0.500
;TYPE:WALL-OUTER
G1 F720 X111.520 Y107.992 E14.77148
G1 X111.974 Y108.024 E14.79879
G1 X112.374 Y108.102 E14.82324
G1 X112.744 Y108.218 E14.84651
G1 X113.168 Y108.414 E14.87453
G1 X113.501 Y108.617 E14.89793
G1 X113.831 Y108.877 E14.92314
G1 X114.145 Y109.195 E14.94995
G1 X114.388 Y109.505 E14.97359
G1 X114.623 Y109.901 E15.00122
G1 X114.785 Y110.264 E15.02507
G1 X114.909 Y110.666 E15.05031
G1 X114.985 Y111.080 E15.07556
G1 X115.010 Y111.498 E15.10069
G1 X114.979 Y111.959 E15.12841
G1 X114.905 Y112.354 E15.15252
G1 X114.764 Y112.789 E15.17996
G1 X114.559 Y113.212 E15.20816
G1 X114.388 Y113.496 E15.22805
G1 X114.127 Y113.828 E15.25339
G1 X113.819 Y114.135 E15.27948
G1 X113.453 Y114.414 E15.30710
G1 X113.109 Y114.618 E15.33109
G1 X112.684 Y114.802 E15.35888
G1 X112.305 Y114.916 E15.38263
G1 X111.921 Y114.985 E15.40604
G1 X111.493 Y115.009 E15.43176
G1 X111.058 Y114.982 E15.45791
G1 X110.597 Y114.891 E15.48610
G1 X110.229 Y114.771 E15.50932
G1 X109.858 Y114.602 E15.53379
G1 X109.466 Y114.360 E15.56143
G1 X109.159 Y114.115 E15.58499
G1 X108.881 Y113.836 E15.60862
G1 X108.615 Y113.498 E15.63443
G1 X108.392 Y113.128 E15.66035
G1 X108.203 Y112.697 E15.68859
G1 X108.087 Y112.317 E15.71243
G1 X108.017 Y111.935 E15.73573
G1 X107.991 Y111.458 E15.76439
G1 X108.010 Y111.146 E15.78315
G1 X108.088 Y110.682 E15.81138
G1 X108.226 Y110.237 E15.83933
G1 X108.423 Y109.818 E15.86711
G1 X108.629 Y109.485 E15.89061
G1 X108.879 Y109.167 E15.91488
G1 X109.206 Y108.846 E15.94237
G1 X109.503 Y108.615 E15.96495
G1 X109.921 Y108.369 E15.99405
G1 X110.287 Y108.208 E16.01804
G1 X110.657 Y108.094 E16.04127
G1 X111.122 Y108.013 E16.06959
G0 F6000 X111.128 Y109.457
G1 F720 X110.788 Y109.547 E16.09069
G1 X110.450 Y109.707 E16.11313
G1 X110.155 Y109.917 E16.13485
G1 X109.901 Y110.176 E16.15662
G1 X109.700 Y110.462 E16.17759
G1 X109.544 Y110.801 E16.19998
G1 X109.454 Y111.139 E16.22097
G1 X109.421 Y111.501 E16.24278
G1 X109.457 Y111.873 E16.26520
G1 X109.547 Y112.213 E16.28631
G1 X109.707 Y112.551 E16.30874
G1 X109.917 Y112.846 E16.33047
G1 X110.176 Y113.100 E16.35224
G1 X110.462 Y113.301 E16.37321
G1 X110.801 Y113.457 E16.39560
G1 X111.140 Y113.548 E16.41666
G1 X111.501 Y113.579 E16.43840
G1 X111.873 Y113.544 E16.46082
G1 X112.213 Y113.454 E16.48192
G1 X112.551 Y113.294 E16.50436
G1 X112.846 Y113.084 E16.52609
G1 X113.100 Y112.827 E16.54777
G1 X113.301 Y112.540 E16.56879
G1 X113.457 Y112.200 E16.59123
G1 X113.548 Y111.861 E16.61229
G1 X113.579 Y111.499 E16.63409
G1 X113.544 Y111.128 E16.65645
G1 X113.454 Y110.788 E16.67756
G1 X113.294 Y110.450 E16.69999
G1 X113.084 Y110.155 E16.72172
G1 X112.827 Y109.901 E16.74340
G1 X112.540 Y109.700 E16.76442
G1 X112.200 Y109.544 E16.78687
G1 X111.862 Y109.454 E16.80785
G1 X111.499 Y109.421 E16.82972
G1 X111.128 Y109.457 E16.85209
G0 F6000 X111.319 Y109.197
;TYPE:SKIN
G1 F720 X110.216 Y108.518 E16.92048
G1 X110.359 Y109.510 E16.98051
G1 X109.200 Y109.200 E17.03798
G1 X109.512 Y110.360 E17.09540
G1 X108.516 Y110.214 E17.15600
G1 X109.197 Y111.319 E17.23388
G0 F6000 X108.245 Y111.215
G1 F720 X109.318 Y112.288 E17.32493
G0 F6000 X108.292 Y112.111
G1 F720 X110.884 Y114.702 E17.54482
G0 F6000 X111.781 Y114.751
G1 F720 X110.708 Y113.678 E17.63587
G0 F6000 X111.681 Y113.802
G1 F720 X112.784 Y114.481 E17.70426
G1 X112.640 Y113.488 E17.76446
G1 X113.798 Y113.797 E17.82175
G1 X113.487 Y112.639 E17.87906
G1 X114.482 Y112.784 E17.93960
G1 X113.803 Y111.681 E18.01731
G0 F6000 X114.750 Y111.780
G1 F720 X113.681 Y110.711 E18.10802
G0 F6000 X114.705 Y110.887
G1 F720 X112.113 Y108.295 E18.32796
G0 F6000 X111.218 Y108.248
G1 F720 X112.294 Y109.324 E18.41926
;LAYER:3
G0 F6000 X112.212 Y109.547 Z0.600
;TYPE:WALL-OUTER
G1 F720 X111.862 Y109.454 E18.44099
G1 X111.499 Y109.421 E18.46286
G1 X111.123 Y109.457 E18.48552
G1 X110.774 Y109.554 E18.50725
G1 X110.449 Y109.709 E18.52886
G1 X110.163 Y109.908 E18.54976
G1 X109.898 Y110.179 E18.57250
G1 X109.694 Y110.476 E18.59412
G1 X109.547 Y110.789 E18.61487
G1 X109.454 Y111.139 E18.63660
G1 X109.421 Y111.501 E18.65841
G1 X109.457 Y111.878 E18.68113
G1 X109.554 Y112.227 E18.70287
G1 X109.709 Y112.554 E18.72458
G1 X109.908 Y112.838 E18.74539
G1 X110.179 Y113.103 E18.76813
G1 X110.476 Y113.307 E18.78975
G1 X110.789 Y113.454 E18.81049
G1 X111.140 Y113.548 E18.83230
G1 X111.501 Y113.579 E18.85404
G1 X111.877 Y113.544 E18.87669
G1 X112.227 Y113.447 E18.89849
G1 X112.554 Y113.292 E18.92020
G1 X112.838 Y113.093 E18.94101
G1 X113.103 Y112.823 E18.96370
G1 X113.307 Y112.527 E18.98527
G1 X113.454 Y112.212 E19.00613
G1 X113.548 Y111.861 E19.02793
G1 X113.579 Y111.499 E19.04973
G1 X113.544 Y111.124 E19.07233
G1 X113.447 Y110.774 E19.09412
G1 X113.292 Y110.449 E19.11573
G1 X113.093 Y110.163 E19.13663
G1 X112.823 Y109.898 E19.15933
G1 X112.527 Y109.694 E19.18090
G1 X112.212 Y109.547 E19.20176
G0 F6000 X112.748 Y108.220
G1 F720 X113.129 Y108.391 E19.22681
G1 X113.507 Y108.621 E19.25336
G1 X113.878 Y108.921 E19.28199
G1 X114.149 Y109.199 E19.30528
G1 X114.387 Y109.505 E19.32854
G1 X114.628 Y109.913 E19.35697
G1 X114.781 Y110.254 E19.37940
G1 X114.921 Y110.726 E19.40894
G1 X114.987 Y111.109 E19.43226
G1 X115.009 Y111.505 E19.45605
G1 X114.979 Y111.966 E19.48377
G1 X114.903 Y112.360 E19.50785
G1 X114.783 Y112.743 E19.53193
G1 X114.549 Y113.229 E19.56429
G1 X114.387 Y113.497 E19.58308
G1 X114.096 Y113.861 E19.61104
G1 X113.822 Y114.132 E19.63417
G1 X113.435 Y114.427 E19.66336
G1 X113.109 Y114.619 E19.68606
G1 X112.749 Y114.781 E19.70975
G1 X112.293 Y114.918 E19.73832
G1 X111.923 Y114.985 E19.76088
G1 X111.501 Y115.010 E19.78624
G1 X111.053 Y114.981 E19.81318
G1 X110.667 Y114.909 E19.83674
G1 X110.215 Y114.766 E19.86518
G1 X109.859 Y114.603 E19.88868
G1 X109.524 Y114.400 E19.91218
G1 X109.152 Y114.108 E19.94055
G1 X108.873 Y113.827 E19.96431
G1 X108.639 Y113.532 E19.98691
G1 X108.393 Y113.130 E20.01518
G1 X108.200 Y112.689 E20.04407
G1 X108.087 Y112.314 E20.06757
G1 X108.017 Y111.931 E20.09093
G1 X107.991 Y111.450 E20.11983
G1 X108.009 Y111.158 E20.13738
G1 X108.088 Y110.681 E20.16639
G1 X108.227 Y110.234 E20.19448
G1 X108.393 Y109.870 E20.21848
G1 X108.587 Y109.544 E20.24124
G1 X108.875 Y109.173 E20.26942
G1 X109.215 Y108.840 E20.29798
G1 X109.527 Y108.598 E20.32167
G1 X109.869 Y108.393 E20.34559
G1 X110.287 Y108.208 E20.37302
G1 X110.658 Y108.094 E20.39631
G1 X111.131 Y108.012 E20.42511
G1 X111.523 Y107.992 E20.44866
G1 X111.994 Y108.027 E20.47700
G1 X112.373 Y108.102 E20.50018
G1 X112.748 Y108.220 E20.52377
G0 F6000 X112.613 Y108.428
;TYPE:SKIN
G1 F720 X112.155 Y109.309 E20.59029
G1 X113.429 Y108.884 E20.64979
G1 X113.200 Y109.961 E20.70694
G1 X114.246 Y109.764 E20.76452
G1 X113.751 Y111.107 E20.82578
G1 X114.643 Y110.640 E20.88619
G0 F6000 X114.759 Y111.372
G1 F720 X113.543 Y112.589 E20.98941
G0 F6000 X114.663 Y112.317
G1 F720 X112.323 Y114.658 E21.18801
G0 F6000 X111.371 Y114.761
G1 F720 X112.598 Y113.534 E21.29213
G0 F6000 X111.468 Y113.815
G1 F720 X110.329 Y114.530 E21.36273
G1 X110.466 Y113.545 E21.42399
G1 X109.284 Y113.878 E21.48171
G1 X109.572 Y112.741 E21.53871
G1 X108.568 Y112.896 E21.59824
G1 X109.211 Y111.829 E21.67299
G0 F6000 X109.260 Y110.933
G1 F720 X108.260 Y111.932 E21.75780
G0 F6000 X108.265 Y111.079
G1 F720 X111.080 Y108.263 E21.99670
G0 F6000 X111.930 Y108.262
G1 F720 X110.931 Y109.261 E22.08147
G0 F6000 X109.757 Y108.738
G1 F720 X108.741 Y109.754 E22.16768
;LAYER:4
G0 F6000 X108.433 Y109.801 Z0.700
;TYPE:WALL-OUTER
G1 F720 X108.643 Y109.463 E22.19155
G1 X108.871 Y109.177 E22.21350
G1 X109.226 Y108.831 E22.24324
G1 X109.527 Y108.600 E22.26601
G1 X109.946 Y108.357 E22.29507
G1 X110.297 Y108.204 E22.31804
G1 X110.657 Y108.094 E22.34063
G1 X111.141 Y108.011 E22.37009
G1 X111.525 Y107.992 E22.39316
G1 X112.007 Y108.029 E22.42217
G1 X112.377 Y108.102 E22.44480
G1 X112.746 Y108.219 E22.46802
G1 X113.182 Y108.422 E22.49688
G1 X113.516 Y108.627 E22.52039
G1 X113.821 Y108.868 E22.54372
G1 X114.157 Y109.208 E22.57240
G1 X114.390 Y109.509 E22.59524
G1 X114.631 Y109.917 E22.62367
