; G-Code generated by Simplify3D(R) Version 3.1.1
; Nov 4, 2016 at 8:39:19 PM
; Settings Summary
;   processName,Basic 0.6mm nozzle -  0.15 layer - raft
;   applyToModels,BatteryBox
;   profileName,Basic 0.6mm nozzle, 0.15 layer, raft (modified)
;   profileVersion,2016-06-08 08:00:00
;   baseProfile,Ultimaker 2+ (modified)
;   printMaterial,ABS
;   printQuality,Medium
;   printExtruders,
;   extruderName,Primary Extruder
;   extruderToolheadNumber,0
;   extruderDiameter,0.6
;   extruderAutoWidth,1
;   extruderWidth,0.72
;   extrusionMultiplier,1
;   extruderUseRetract,1
;   extruderRetractionDistance,6
;   extruderExtraRestartDistance,0
;   extruderRetractionZLift,0
;   extruderRetractionSpeed,1500
;   extruderUseCoasting,1
;   extruderCoastingDistance,1
;   extruderUseWipe,0
;   extruderWipeDistance,2
;   primaryExtruder,0
;   layerHeight,0.15
;   topSolidLayers,4
;   bottomSolidLayers,3
;   perimeterOutlines,2
;   printPerimetersInsideOut,0
;   startPointOption,2
;   startPointOriginX,0
;   startPointOriginY,0
;   startPointOriginZ,300
;   sequentialIslands,0
;   spiralVaseMode,0
;   firstLayerHeightPercentage,130
;   firstLayerWidthPercentage,100
;   firstLayerUnderspeed,0.3
;   useRaft,0
;   raftExtruder,0
;   raftLayers,3
;   raftOffset,3
;   raftSeparationDistance,0.2
;   raftInfill,85
;   disableRaftBaseLayers,0
;   useSkirt,1
;   skirtExtruder,0
;   skirtLayers,1
;   skirtOutlines,5
;   skirtOffset,0
;   usePrimePillar,0
;   primePillarExtruder,999
;   primePillarWidth,12
;   primePillarLocation,7
;   primePillarSpeedMultiplier,1
;   useOozeShield,0
;   oozeShieldExtruder,999
;   oozeShieldOffset,2
;   oozeShieldOutlines,1
;   oozeShieldSidewallShape,1
;   oozeShieldSidewallAngle,30
;   oozeShieldSpeedMultiplier,1
;   infillExtruder,0
;   internalInfillPattern,Triangular
;   externalInfillPattern,Rectilinear
;   infillPercentage,100
;   outlineOverlapPercentage,35
;   infillExtrusionWidthPercentage,125
;   minInfillLength,3
;   infillLayerInterval,1
;   infillAngles,0,60,-60
;   overlapInfillAngles,1
;   generateSupport,1
;   supportExtruder,0
;   supportInfillPercentage,30
;   supportExtraInflation,0
;   denseSupportLayers,0
;   denseSupportInfillPercentage,70
;   supportLayerInterval,1
;   supportHorizontalPartOffset,0.3
;   supportUpperSeparationLayers,1
;   supportLowerSeparationLayers,1
;   supportType,0
;   supportGridSpacing,4
;   maxOverhangAngle,45
;   supportAngles,0
;   temperatureName,Primary Extruder,Heated Build Platform
;   temperatureNumber,0,1
;   temperatureSetpointCount,1,1
;   temperatureSetpointLayers,1,1
;   temperatureSetpointTemperatures,230,100
;   temperatureStabilizeAtStartup,1,1
;   temperatureHeatedBed,0,1
;   temperatureRelayBetweenLayers,0,0
;   temperatureRelayBetweenLoops,1,0
;   fanLayers,1
;   fanSpeeds,0
;   blipFanToFullPower,1
;   adjustSpeedForCooling,1
;   minSpeedLayerTime,15
;   minCoolingSpeedSlowdown,20
;   increaseFanForCooling,1
;   minFanLayerTime,10
;   maxCoolingFanSpeed,30
;   increaseFanForBridging,1
;   bridgingFanSpeed,90
;   use5D,1
;   relativeEdistances,0
;   allowEaxisZeroing,1
;   independentExtruderAxes,0
;   includeM10123,0
;   stickySupport,1
;   applyToolheadOffsets,0
;   gcodeXoffset,0
;   gcodeYoffset,0
;   gcodeZoffset,0
;   overrideMachineDefinition,1
;   machineTypeOverride,0
;   strokeXoverride,223
;   strokeYoverride,223
;   strokeZoverride,205
;   originOffsetXoverride,0
;   originOffsetYoverride,0
;   originOffsetZoverride,0
;   homeXdirOverride,-1
;   homeYdirOverride,-1
;   homeZdirOverride,-1
;   flipXoverride,1
;   flipYoverride,-1
;   flipZoverride,1
;   toolheadOffsets,0,0|0,0|0,0|0,0|0,0|0,0
;   overrideFirmwareConfiguration,1
;   firmwareTypeOverride,RepRap (Marlin/Repetier/Sprinter)
;   GPXconfigOverride,r2
;   baudRateOverride,250000
;   overridePrinterModels,1
;   printerModelsOverride
;   startingGcode,G28 ; home all axes,G1 X20 Y10 F3000 ; bring extruder to front,G92 E0 ; zero the extruded length,G1 Z10 ; lower,G1 E19 F200 ; purge nozzle quickly,G1 E26 F60 ; purge nozzle slowly,G92 E0 ; zero the extruded length again,G1 E-5.5 F400 ; retract,G1 X190 Z0 F9000 ; pull away filament,G1 X210 F9000 ; wipe,G1 Y20 F9000 ; wipe,G1 E0 ; feed filament back
;   layerChangeGcode,
;   retractionGcode,
;   toolChangeGcode,
;   endingGcode,G28 X0 ; home the X-axis,M104 S0 ; turn off heaters,M140 S0 ; turn off bed,M84 ; disable motors
;   exportFileFormat,gcode
;   celebration,0
;   celebrationSong,Random Song
;   postProcessing,
;   defaultSpeed,5500
;   outlineUnderspeed,0.65
;   solidInfillUnderspeed,0.7
;   supportUnderspeed,0.7
;   rapidXYspeed,4000
;   rapidZspeed,1000
;   minBridgingArea,5
;   bridgingExtraInflation,0
;   bridgingExtrusionMultiplier,1
;   bridgingSpeedMultiplier,0.5
;   filamentDiameter,2.85
;   filamentPricePerKg,46
;   filamentDensity,1.25
;   useMinPrintHeight,0
;   minPrintHeight,0
;   useMaxPrintHeight,0
;   maxPrintHeight,0
;   useDiaphragm,0
;   diaphragmLayerInterval,20
;   robustSlicing,1
;   mergeAllIntoSolid,0
;   onlyRetractWhenCrossingOutline,1
;   retractBetweenLayers,1
;   useRetractionMinTravel,1
;   retractionMinTravel,0
;   retractWhileWiping,0
;   onlyWipeOutlines,1
;   avoidCrossingOutline,1
;   maxMovementDetourFactor,3
;   toolChangeRetractionDistance,12
;   toolChangeExtraRestartDistance,-0.5
;   toolChangeRetractionSpeed,600
;   allowThinWallGapFill,1
;   thinWallAllowedOverlapPercentage,10
;   horizontalSizeCompensation,0
G90
M82
M106 S0
M140 S100
M190 S100
M104 S230 T0
M109 S230 T0
G28 ; home all axes
G1 X20 Y10 F3000 ; bring extruder to front
G92 E0 ; zero the extruded length
G1 Z10 ; lower
G1 E19 F200 ; purge nozzle quickly
G1 E26 F60 ; purge nozzle slowly
G92 E0 ; zero the extruded length again
G1 E-5.5 F400 ; retract
G1 X190 Z0 F9000 ; pull away filament
G1 X210 F9000 ; wipe
G1 Y20 F9000 ; wipe
G1 E0 ; feed filament back
G92 E0
G1 E-6.0000 F1500
G1 Z0.195 F1000
; layer 1, Z = 0.195
T0
; tool H0.195 W0.720
; skirt
G1 X139.928 Y102.200 F4000
G1 E0.0000 F450
G92 E0
G1 X140.451 Y101.491 E0.0194 F1650
G1 X140.881 Y101.088 E0.0323
G1 X141.465 Y100.711 E0.0476
G1 X142.005 Y100.488 E0.0605
G1 X142.625 Y100.354 E0.0745
G1 X142.953 Y100.317 E0.0817
G1 X179.281 Y99.981 E0.8813
G1 X179.609 Y100.012 E0.8885
G1 X180.329 Y100.153 E0.9047
G1 X181.039 Y100.483 E0.9219
G1 X181.754 Y101.055 E0.9421
G1 X182.153 Y101.522 E0.9556
G1 X182.485 Y102.106 E0.9704
G1 X182.668 Y102.598 E0.9819
G1 X182.779 Y103.161 E0.9946
G1 X182.810 Y103.460 E1.0012
G1 X183.534 Y181.758 E2.7245
G1 X183.509 Y182.058 E2.7311
G1 X183.388 Y182.733 E2.7462
G1 X183.094 Y183.419 E2.7626
G1 X182.571 Y184.127 E2.7820
G1 X182.142 Y184.531 E2.7949
G1 X181.558 Y184.907 E2.8102
G1 X181.017 Y185.131 E2.8231
G1 X180.397 Y185.265 E2.8371
G1 X180.069 Y185.301 E2.8443
G1 X143.741 Y185.637 E3.6439
G1 X143.413 Y185.607 E3.6511
G1 X142.693 Y185.465 E3.6673
G1 X141.983 Y185.136 E3.6845
G1 X141.268 Y184.563 E3.7047
G1 X140.869 Y184.096 E3.7182
G1 X140.536 Y183.512 E3.7330
G1 X140.354 Y183.021 E3.7445
G1 X140.243 Y182.457 E3.7572
G1 X140.212 Y182.158 E3.7638
G1 X139.488 Y103.861 E5.4870
G1 X139.513 Y103.561 E5.4937
G1 X139.589 Y103.135 E5.5032
G1 X139.634 Y102.886 F1650
G1 X139.928 Y102.200 F1650
G1 X140.557 Y102.560 F4000
G92 E0
G1 X140.991 Y101.971 E0.0161 F1650
G1 X141.326 Y101.657 E0.0262
G1 X141.800 Y101.352 E0.0386
G1 X142.220 Y101.178 E0.0486
G1 X142.741 Y101.065 E0.0603
G1 X142.996 Y101.037 E0.0660
G1 X179.251 Y100.702 E0.8639
G1 X179.506 Y100.725 E0.8696
G1 X180.105 Y100.843 E0.8830
G1 X180.657 Y101.099 E0.8964
G1 X181.251 Y101.574 E0.9131
G1 X181.561 Y101.938 E0.9237
G1 X181.831 Y102.412 E0.9357
G1 X181.973 Y102.794 E0.9446
G1 X182.067 Y103.268 E0.9553
G1 X182.090 Y103.500 E0.9604
G1 X182.813 Y181.731 E2.6822
G1 X182.794 Y181.964 E2.6874
G1 X182.694 Y182.525 E2.6999
G1 X182.465 Y183.058 E2.7127
G1 X182.031 Y183.647 E2.7288
G1 X181.697 Y183.961 E2.7389
G1 X181.222 Y184.267 E2.7513
G1 X180.802 Y184.441 E2.7613
G1 X180.281 Y184.553 E2.7730
G1 X180.026 Y184.582 E2.7787
G1 X143.771 Y184.917 E3.5766
G1 X143.516 Y184.893 E3.5823
G1 X142.917 Y184.775 E3.5957
G1 X142.365 Y184.519 E3.6091
G1 X141.771 Y184.044 E3.6258
G1 X141.461 Y183.680 E3.6363
G1 X141.191 Y183.206 E3.6483
G1 X141.049 Y182.824 E3.6573
G1 X140.955 Y182.351 E3.6679
G1 X140.932 Y182.118 E3.6731
G1 X140.209 Y103.887 E5.3949
G1 X140.228 Y103.654 E5.4000
G1 X140.255 Y103.507 E5.4033
G1 X140.328 Y103.094 F1650
G1 X140.557 Y102.560 F1650
G1 X141.186 Y102.921 F4000
G92 E0
G1 X141.532 Y102.451 E0.0128 F1650
G1 X141.771 Y102.227 E0.0200
G1 X142.135 Y101.992 E0.0296
G1 X142.435 Y101.868 E0.0367
G1 X142.857 Y101.777 E0.0462
G1 X143.039 Y101.756 E0.0503
G1 X179.221 Y101.422 E0.8466
G1 X179.403 Y101.439 E0.8506
G1 X179.880 Y101.533 E0.8613
G1 X180.275 Y101.716 E0.8709
G1 X180.747 Y102.094 E0.8842
G1 X180.969 Y102.354 E0.8917
G1 X181.177 Y102.718 E0.9010
G1 X181.278 Y102.991 E0.9074
G1 X181.354 Y103.374 E0.9160
G1 X181.371 Y103.540 E0.9196
G1 X182.093 Y181.704 E2.6400
G1 X182.079 Y181.871 E2.6437
G1 X182.000 Y182.317 E2.6536
G1 X181.836 Y182.698 E2.6628
G1 X181.490 Y183.167 E2.6756
G1 X181.251 Y183.391 E2.6828
G1 X180.887 Y183.626 E2.6923
G1 X180.587 Y183.751 E2.6995
G1 X180.165 Y183.842 E2.7090
G1 X179.983 Y183.862 E2.7130
G1 X143.801 Y184.196 E3.5093
G1 X143.619 Y184.179 E3.5134
G1 X143.142 Y184.086 E3.5241
G1 X142.747 Y183.903 E3.5336
G1 X142.275 Y183.524 E3.5470
G1 X142.053 Y183.265 E3.5545
G1 X141.845 Y182.901 E3.5637
G1 X141.744 Y182.628 E3.5701
G1 X141.668 Y182.244 E3.5787
G1 X141.651 Y182.078 E3.5824
G1 X140.929 Y103.914 E5.3027
G1 X140.932 Y103.879 E5.3035
G1 X140.943 Y103.748 F1650
G1 X141.022 Y103.302 F1650
G1 X141.186 Y102.921 F1650
G1 X141.815 Y103.281 F4000
G92 E0
G1 X142.073 Y102.931 E0.0096 F1650
G1 X142.216 Y102.797 E0.0139
G1 X142.471 Y102.632 E0.0206
G1 X142.651 Y102.558 E0.0249
G1 X142.973 Y102.488 E0.0321
G1 X143.083 Y102.476 E0.0345
G1 X179.191 Y102.142 E0.8293
G1 X179.300 Y102.152 E0.8317
G1 X179.656 Y102.222 E0.8397
G1 X179.893 Y102.332 E0.8454
G1 X180.244 Y102.613 E0.8553
G1 X180.377 Y102.769 E0.8598
G1 X180.522 Y103.023 E0.8662
G1 X180.583 Y103.187 E0.8701
G1 X180.641 Y103.481 E0.8767
G1 X180.651 Y103.581 E0.8789
G1 X181.373 Y181.677 E2.5977
G1 X181.364 Y181.777 E2.5999
G1 X181.305 Y182.109 E2.6074
G1 X181.207 Y182.337 E2.6128
G1 X180.949 Y182.687 E2.6224
G1 X180.806 Y182.822 E2.6267
G1 X180.551 Y182.986 E2.6334
G1 X180.371 Y183.061 E2.6377
G1 X180.049 Y183.130 E2.6449
G1 X179.939 Y183.142 E2.6474
G1 X143.831 Y183.476 E3.4421
G1 X143.722 Y183.466 E3.4445
G1 X143.366 Y183.396 E3.4525
G1 X143.129 Y183.286 E3.4582
G1 X142.778 Y183.005 E3.4681
G1 X142.645 Y182.849 E3.4726
G1 X142.500 Y182.595 E3.4791
G1 X142.439 Y182.431 E3.4829
G1 X142.381 Y182.138 E3.4895
G1 X142.371 Y182.038 E3.4917
G1 X141.652 Y104.255 E5.2037
G1 X141.649 Y103.941 F1650
G1 X141.658 Y103.841 F1650
G1 X141.717 Y103.510 F1650
G1 X141.815 Y103.281 F1650
G1 X142.444 Y103.641 F4000
G92 E0
G1 X142.613 Y103.411 E0.0063 F1650
G1 X142.661 Y103.366 E0.0077
G1 X142.806 Y103.273 E0.0115
G1 X142.866 Y103.248 E0.0130
G1 X143.089 Y103.200 E0.0180
G1 X143.126 Y103.196 E0.0188
G1 X179.161 Y102.863 E0.8119
G1 X179.197 Y102.866 E0.8127
G1 X179.432 Y102.912 E0.8180
G1 X179.511 Y102.949 E0.8199
G1 X179.741 Y103.133 E0.8264
G1 X179.785 Y103.185 E0.8279
G1 X179.868 Y103.329 E0.8315
G1 X179.888 Y103.384 E0.8328
G1 X179.928 Y103.587 E0.8374
G1 X179.931 Y103.621 E0.8381
G1 X180.653 Y181.651 E2.5555
G1 X180.650 Y181.684 E2.5562
G1 X180.611 Y181.901 E2.5611
G1 X180.578 Y181.977 E2.5629
G1 X180.409 Y182.207 E2.5692
G1 X180.361 Y182.252 E2.5706
G1 X180.216 Y182.346 E2.5745
G1 X180.156 Y182.371 E2.5759
G1 X179.933 Y182.419 E2.5809
G1 X179.896 Y182.423 E2.5817
G1 X143.861 Y182.756 E3.3748
G1 X143.825 Y182.752 E3.3756
G1 X143.590 Y182.706 E3.3809
G1 X143.511 Y182.670 E3.3828
G1 X143.281 Y182.485 E3.3893
G1 X143.237 Y182.433 E3.3908
G1 X143.155 Y182.289 E3.3944
G1 X143.134 Y182.235 E3.3957
G1 X143.094 Y182.031 E3.4003
G1 X143.091 Y181.998 E3.4010
G1 X142.376 Y104.631 E5.1038
G1 X142.370 Y103.968 F1650
G1 X142.372 Y103.934 F1650
G1 X142.411 Y103.718 F1650
G1 X142.444 Y103.641 F1650
; outer perimeter
G1 X143.102 Y103.944 F4000
G92 E0
G1 X143.115 Y103.931 E0.0004 F1072
G1 X143.188 Y103.915 E0.0020
G1 X179.113 Y103.583 E0.7927
G1 X179.186 Y103.597 E0.7944
G1 X179.199 Y103.611 E0.7948
G1 X179.212 Y103.677 E0.7963
G1 X179.932 Y181.607 E2.5115
G1 X179.920 Y181.674 E2.5130
G1 X179.907 Y181.688 E2.5134
G1 X179.834 Y181.703 E2.5150
G1 X143.910 Y182.035 E3.3057
G1 X143.836 Y182.021 E3.3073
G1 X143.823 Y182.008 E3.3077
G1 X143.810 Y181.941 E3.3092
G1 X143.099 Y104.943 E5.0039
G1 X143.090 Y104.011 F1072
G1 X143.102 Y103.944 F1072
; inner perimeter
G1 X143.816 Y104.629 F4000
G92 E0
G1 X178.498 Y104.309 E0.7633 F1361
G1 X179.206 Y180.989 E2.4510
G1 X144.524 Y181.310 E3.2143
G1 X143.825 Y105.629 E4.8800
G1 X143.816 Y104.629 F1361
; outer perimeter
G1 X150.343 Y169.088 F4000
G92 E0
G1 X149.947 Y169.198 E0.0091 F1072
G1 X149.575 Y169.376 E0.0181
G1 X149.240 Y169.615 E0.0272
G1 X148.952 Y169.908 E0.0362
G1 X148.719 Y170.248 E0.0453
G1 X148.549 Y170.622 E0.0544
G1 X148.446 Y171.021 E0.0634
G1 X148.414 Y171.431 E0.0725
G1 X148.453 Y171.841 E0.0815
G1 X148.563 Y172.238 E0.0906
G1 X148.741 Y172.609 E0.0996
G1 X148.980 Y172.944 E0.1087
G1 X149.274 Y173.232 E0.1178
G1 X149.613 Y173.465 E0.1268
G1 X149.988 Y173.636 E0.1359
G1 X150.386 Y173.739 E0.1449
G1 X150.797 Y173.771 E0.1540
G1 X151.206 Y173.731 E0.1631
G1 X151.603 Y173.621 E0.1721
G1 X151.974 Y173.444 E0.1812
G1 X152.309 Y173.204 E0.1902
G1 X152.598 Y172.911 E0.1993
G1 X152.831 Y172.571 E0.2084
G1 X153.001 Y172.197 E0.2174
G1 X153.104 Y171.798 E0.2265
G1 X153.136 Y171.388 E0.2355
G1 X153.096 Y170.978 E0.2446
G1 X152.986 Y170.581 E0.2537
G1 X152.809 Y170.210 E0.2627
G1 X152.570 Y169.875 E0.2718
G1 X152.276 Y169.587 E0.2808
G1 X151.937 Y169.354 E0.2899
G1 X151.562 Y169.183 E0.2989
G1 X151.335 Y169.125 E0.3041
G1 X151.163 Y169.080 F1072
G1 X150.753 Y169.048 F1072
G1 X150.343 Y169.088 F1072
; inner perimeter
G1 X150.211 Y168.377 F4000
G92 E0
G1 X149.693 Y168.521 E0.0118 F1361
G1 X149.208 Y168.753 E0.0237
G1 X148.771 Y169.065 E0.0355
G1 X148.394 Y169.449 E0.0473
G1 X148.090 Y169.892 E0.0592
G1 X147.867 Y170.382 E0.0710
G1 X147.733 Y170.902 E0.0828
G1 X147.691 Y171.438 E0.0947
G1 X147.743 Y171.973 E0.1065
G1 X147.887 Y172.491 E0.1183
G1 X148.118 Y172.976 E0.1301
G1 X148.431 Y173.414 E0.1420
G1 X148.814 Y173.790 E0.1538
G1 X149.258 Y174.095 E0.1656
G1 X149.747 Y174.317 E0.1775
G1 X150.267 Y174.452 E0.1893
G1 X150.803 Y174.494 E0.2011
G1 X151.339 Y174.442 E0.2130
G1 X151.856 Y174.298 E0.2248
G1 X152.342 Y174.066 E0.2366
G1 X152.779 Y173.754 E0.2485
G1 X153.156 Y173.370 E0.2603
G1 X153.460 Y172.927 E0.2721
G1 X153.683 Y172.438 E0.2840
G1 X153.817 Y171.917 E0.2958
G1 X153.859 Y171.381 E0.3076
G1 X153.807 Y170.846 E0.3195
G1 X153.663 Y170.328 E0.3313
G1 X153.431 Y169.843 E0.3431
G1 X153.119 Y169.405 E0.3550
G1 X152.735 Y169.029 E0.3668
G1 X152.292 Y168.724 E0.3786
G1 X151.803 Y168.502 E0.3904
G1 X151.282 Y168.368 E0.4023
G1 X151.207 Y168.362 E0.4039
G1 X150.746 Y168.326 F1361
G1 X150.211 Y168.377 F1361
; outer perimeter
G1 X171.946 Y168.995 F4000
G92 E0
G1 X171.574 Y169.172 E0.0091 F1072
G1 X171.239 Y169.411 E0.0181
G1 X170.951 Y169.705 E0.0272
G1 X170.718 Y170.045 E0.0362
G1 X170.548 Y170.419 E0.0453
G1 X170.445 Y170.818 E0.0544
G1 X170.413 Y171.228 E0.0634
G1 X170.452 Y171.638 E0.0725
G1 X170.562 Y172.034 E0.0815
G1 X170.740 Y172.406 E0.0906
