;FLAVOR:UltiGCode
;TIME:7723
;MATERIAL:12927
;MATERIAL2:0
;NOZZLE_DIAMETER:0.600000
;NOZZLE_DIAMETER2:0.600000

;Layer count: 17
;LAYER:0
M107
G0 F9000 X29.794 Y10.214 Z0.300
G0 X29.702 Y10.588
;TYPE:SKIRT
G1 F1800 X29.794 Y10.214 E0.06933
G1 X30.111 Y9.447 E0.21871
G1 X30.262 Y9.092 E0.28815
G1 X30.885 Y8.074 E0.50298
G1 X31.416 Y7.450 E0.65047
G1 X31.670 Y7.152 E0.72095
G1 X32.305 Y6.610 E0.87122
G1 X32.600 Y6.360 E0.94083
G1 X33.631 Y5.729 E1.15841
G1 X34.359 Y5.428 E1.30020
G1 X34.730 Y5.270 E1.37279
G1 X35.550 Y5.074 E1.52455
G1 X35.919 Y4.982 E1.59300
G1 X36.907 Y4.908 E1.77134
G1 X47.062 Y4.901 E3.59924
G1 X48.711 Y4.901 E3.89606
G1 X49.400 Y4.953 E4.02043
G1 X49.791 Y4.988 E4.09109
G1 X50.586 Y5.179 E4.23826
G1 X50.960 Y5.271 E4.30759
G1 X51.727 Y5.588 E4.45698
G1 X52.082 Y5.739 E4.52642
G1 X53.100 Y6.362 E4.74125
G1 X53.724 Y6.893 E4.88873
G1 X54.022 Y7.147 E4.95921
G1 X54.564 Y7.782 E5.10949
G1 X54.814 Y8.077 E5.17909
G1 X55.445 Y9.108 E5.39667
G1 X55.746 Y9.836 E5.53847
G1 X55.904 Y10.207 E5.61105
G1 X56.094 Y11.003 E5.75836
G1 X56.191 Y11.392 E5.83052
G1 X56.267 Y12.379 E6.00871
G1 X56.274 Y28.055 E8.83039
G1 X56.274 Y30.542 E9.27805
G1 X56.221 Y31.231 E9.40243
G1 X56.186 Y31.618 E9.47238
G1 X55.995 Y32.413 E9.61955
G1 X55.903 Y32.787 E9.68888
G1 X55.586 Y33.554 E9.83826
G1 X55.435 Y33.909 E9.90770
G1 X54.812 Y34.927 E10.12253
G1 X54.281 Y35.551 E10.27002
G1 X54.027 Y35.849 E10.34050
G1 X53.392 Y36.391 E10.49077
G1 X53.097 Y36.641 E10.56038
G1 X52.066 Y37.272 E10.77796
G1 X51.338 Y37.573 E10.91975
G1 X50.967 Y37.731 E10.99234
G1 X50.147 Y37.927 E11.14410
G1 X49.778 Y38.018 E11.21251
G1 X48.791 Y38.093 E11.39068
G1 X38.636 Y38.100 E13.21858
G1 X36.987 Y38.100 E13.51540
G1 X36.297 Y38.048 E13.63995
G1 X35.906 Y38.013 E13.71061
G1 X35.111 Y37.822 E13.85778
G1 X34.737 Y37.730 E13.92711
G1 X33.970 Y37.413 E14.07650
G1 X33.615 Y37.262 E14.14594
G1 X32.597 Y36.639 E14.36077
G1 X31.973 Y36.108 E14.50825
G1 X31.675 Y35.854 E14.57873
G1 X31.133 Y35.219 E14.72901
G1 X30.883 Y34.924 E14.79861
G1 X30.252 Y33.893 E15.01619
G1 X29.937 Y33.131 E15.16461
G1 X29.793 Y32.794 E15.23057
G1 X29.597 Y31.974 E15.38233
G1 X29.506 Y31.605 E15.45074
G1 X29.431 Y30.618 E15.62891
G1 X29.424 Y14.946 E18.44987
G1 X29.424 Y12.463 E18.89681
G1 X29.476 Y11.774 E19.02119
G1 X29.511 Y11.383 E19.09185
G1 X29.702 Y10.588 E19.23902
G0 F9000 X30.285 Y10.730
G1 F1800 X30.366 Y10.402 E19.29983
G1 X30.664 Y9.679 E19.44059
G1 X30.797 Y9.367 E19.50164
G1 X31.372 Y8.427 E19.69999
G1 X31.878 Y7.834 E19.84031
G1 X32.096 Y7.577 E19.90097
G1 X32.694 Y7.067 E20.04244
G1 X32.953 Y6.847 E20.10360
G1 X33.903 Y6.265 E20.30414
G1 X34.622 Y5.968 E20.44417
G1 X34.622 Y5.969 E20.44435
G1 X34.919 Y5.842 E20.50249
G1 X35.669 Y5.662 E20.64133
G1 X36.014 Y5.577 E20.70528
G1 X36.930 Y5.508 E20.87063
G1 X47.062 Y5.501 E22.69439
G1 X48.688 Y5.501 E22.98707
G1 X49.351 Y5.551 E23.10675
G1 X49.694 Y5.581 E23.16873
G1 X50.444 Y5.762 E23.30760
G1 X50.772 Y5.843 E23.36841
G1 X51.495 Y6.141 E23.50918
G1 X51.807 Y6.274 E23.57023
G1 X52.747 Y6.849 E23.76857
G1 X53.335 Y7.351 E23.90774
G1 X53.597 Y7.573 E23.96955
G1 X54.107 Y8.171 E24.11102
G1 X54.327 Y8.430 E24.17219
G1 X54.909 Y9.380 E24.37273
G1 X55.206 Y10.099 E24.51275
G1 X55.205 Y10.099 E24.51293
G1 X55.332 Y10.396 E24.57108
G1 X55.512 Y11.146 E24.70991
G1 X55.596 Y11.488 E24.77330
G1 X55.667 Y12.403 E24.93849
G1 X55.674 Y28.055 E27.75585
G1 X55.674 Y30.518 E28.19919
G1 X55.623 Y31.181 E28.31889
G1 X55.593 Y31.521 E28.38032
G1 X55.412 Y32.271 E28.51920
G1 X55.331 Y32.599 E28.58001
G1 X55.033 Y33.322 E28.72077
G1 X54.900 Y33.634 E28.78182
G1 X54.325 Y34.574 E28.98017
G1 X53.819 Y35.167 E29.12049
G1 X53.601 Y35.424 E29.18115
G1 X53.003 Y35.934 E29.32262
G1 X52.744 Y36.154 E29.38379
G1 X51.794 Y36.736 E29.58432
G1 X51.075 Y37.033 E29.72435
G1 X51.075 Y37.032 E29.72453
G1 X50.778 Y37.159 E29.78267
G1 X50.028 Y37.339 E29.92151
G1 X49.683 Y37.424 E29.98546
G1 X48.768 Y37.493 E30.15063
G1 X38.636 Y37.500 E31.97439
G1 X37.010 Y37.500 E32.26707
G1 X36.346 Y37.450 E32.38693
G1 X36.003 Y37.420 E32.44891
G1 X35.253 Y37.239 E32.58778
G1 X34.925 Y37.158 E32.64860
G1 X34.202 Y36.860 E32.78936
G1 X33.890 Y36.727 E32.85041
G1 X32.950 Y36.152 E33.04875
G1 X32.357 Y35.646 E33.18907
G1 X32.100 Y35.428 E33.24973
G1 X31.590 Y34.830 E33.39120
G1 X31.370 Y34.571 E33.45237
G1 X30.788 Y33.621 E33.65291
G1 X30.491 Y32.902 E33.79293
G1 X30.492 Y32.902 E33.79311
G1 X30.365 Y32.605 E33.85126
G1 X30.180 Y31.834 E33.99398
G1 X30.100 Y31.510 E34.05405
G1 X30.031 Y30.595 E34.21921
G1 X30.024 Y14.946 E37.03603
G1 X30.024 Y12.486 E37.47883
G1 X30.074 Y11.823 E37.59851
G1 X30.104 Y11.480 E37.66049
G1 X30.285 Y10.730 E37.79937
G10
G1 Z1.300
G0 F9000 X33.662 Y12.119
;TYPE:WALL-OUTER
G1 Z0.300
G11
G1 F1800 X33.667 Y12.064 E37.80931
G1 X33.795 Y11.528 E37.90850
G1 X34.005 Y11.022 E38.00711
G1 X34.296 Y10.546 E38.10753
G1 X34.652 Y10.129 E38.20623
G1 X35.069 Y9.773 E38.30492
G1 X35.543 Y9.483 E38.40494
G1 X36.049 Y9.274 E38.50348
G1 X36.583 Y9.144 E38.60241
G1 X37.065 Y9.108 E38.68941
G1 X48.554 Y9.101 E40.75743
G1 X49.055 Y9.139 E40.84787
G1 X49.110 Y9.144 E40.85781
G1 X49.646 Y9.272 E40.95701
G1 X50.152 Y9.482 E41.05562
G1 X50.628 Y9.773 E41.15604
G1 X51.045 Y10.129 E41.25473
G1 X51.401 Y10.546 E41.35343
G1 X51.691 Y11.020 E41.45345
G1 X51.900 Y11.526 E41.55199
G1 X52.030 Y12.061 E41.65109
G1 X52.067 Y12.541 E41.73775
G1 X52.074 Y30.381 E44.94895
G1 X52.035 Y30.882 E45.03940
G1 X52.030 Y30.937 E45.04935
G1 X51.902 Y31.473 E45.14854
G1 X51.692 Y31.979 E45.24715
G1 X51.401 Y32.455 E45.34757
G1 X51.045 Y32.872 E45.44627
G1 X50.628 Y33.228 E45.54496
G1 X50.154 Y33.518 E45.64498
G1 X49.648 Y33.727 E45.74352
G1 X49.114 Y33.857 E45.84245
G1 X48.633 Y33.893 E45.92927
G1 X37.144 Y33.900 E47.99729
G1 X36.642 Y33.862 E48.08791
G1 X36.587 Y33.857 E48.09785
G1 X36.051 Y33.729 E48.19705
G1 X35.545 Y33.519 E48.29566
G1 X35.069 Y33.228 E48.39608
G1 X34.652 Y32.872 E48.49477
G1 X34.296 Y32.455 E48.59347
G1 X34.006 Y31.981 E48.69349
G1 X33.797 Y31.475 E48.79203
G1 X33.667 Y30.941 E48.89096
G1 X33.631 Y30.460 E48.97778
G1 X33.624 Y12.620 E52.18898
G1 X33.662 Y12.119 E52.27942
G10
G1 Z1.300
G0 F9000 X38.696 Y13.326
G1 Z0.300
G11
G1 F1800 X38.696 Y15.433 E52.65868
G1 X41.649 Y15.433 E53.19022
G1 X41.649 Y27.568 E55.37452
G1 X38.696 Y27.568 E55.90606
G1 X38.696 Y29.674 E56.28514
G1 X47.001 Y29.674 E57.78004
G1 X47.001 Y27.568 E58.15912
G1 X44.049 Y27.568 E58.69048
G1 X44.049 Y15.433 E60.87478
G1 X47.001 Y15.433 E61.40614
G1 X47.001 Y13.326 E61.78540
G1 X38.696 Y13.326 E63.28030
G0 F9000 X38.455 Y13.423
;TYPE:SKIN
G1 F1800 X35.096 Y10.064 E64.13536
G0 F9000 X34.665 Y10.482
G1 F1800 X38.455 Y14.272 E65.10014
G0 F9000 X38.455 Y15.120
G1 F1800 X34.311 Y10.977 E66.15490
G0 F9000 X34.041 Y11.555
G1 F1800 X41.408 Y18.922 E68.03023
G0 F9000 X41.408 Y18.074
G1 F1800 X39.007 Y15.673 E68.64143
G0 F9000 X39.856 Y15.673
G1 F1800 X41.408 Y17.225 E69.03650
G0 F9000 X41.408 Y16.377
G1 F1800 X40.704 Y15.673 E69.21571
G0 F9000 X40.704 Y15.833
G0 X38.255 Y15.874
G0 X38.255 Y12.885
G0 X40.662 Y12.926
G0 X40.662 Y13.085
G1 F1800 X36.935 Y9.358 E70.16445
G0 F9000 X36.210 Y9.481
G1 F1800 X39.814 Y13.085 E71.08188
G0 F9000 X38.965 Y13.085
G1 F1800 X35.605 Y9.725 E71.93720
G0 F9000 X35.688 Y9.863
G0 X37.773 Y9.508
G0 X37.773 Y9.347
G1 F1800 X41.511 Y13.085 E72.88874
G0 F9000 X42.359 Y13.085
G1 F1800 X38.621 Y9.347 E73.84028
G0 F9000 X39.469 Y9.346
G1 F1800 X43.208 Y13.085 E74.79207
G0 F9000 X44.056 Y13.085
G1 F1800 X40.317 Y9.346 E75.74386
G0 F9000 X41.165 Y9.345
G1 F1800 X44.905 Y13.085 E76.69591
G0 F9000 X45.754 Y13.085
G1 F1800 X42.013 Y9.345 E77.64809
G0 F9000 X42.861 Y9.344
G1 F1800 X46.602 Y13.085 E78.60039
G0 F9000 X47.239 Y13.722
G1 F1800 X51.828 Y18.311 E79.76856
G0 F9000 X51.828 Y17.463
G1 F1800 X43.709 Y9.344 E81.83532
G0 F9000 X44.557 Y9.343
G1 F1800 X51.828 Y16.614 E83.68621
G0 F9000 X51.827 Y15.764
G1 F1800 X45.405 Y9.343 E85.32086
G0 F9000 X46.253 Y9.342
G1 F1800 X51.827 Y14.916 E86.73977
G0 F9000 X51.826 Y14.067
G1 F1800 X47.101 Y9.342 E87.94256
G0 F9000 X47.949 Y9.341
G1 F1800 X51.826 Y13.218 E88.92948
G0 F9000 X51.811 Y12.354
G1 F1800 X48.819 Y9.362 E89.69112
G0 F9000 X49.972 Y9.667
G1 F1800 X51.504 Y11.199 E90.08110
G0 F9000 X51.357 Y11.258
G0 X47.401 Y14.571
G0 X47.239 Y14.571
G1 F1800 X51.829 Y19.161 E91.24953
G0 F9000 X51.829 Y20.009
G1 F1800 X47.239 Y15.419 E92.41795
G0 F9000 X46.644 Y15.673
G1 F1800 X51.830 Y20.858 E93.73796
G0 F9000 X51.830 Y21.707
G1 F1800 X45.795 Y15.673 E95.27410
G0 F9000 X44.947 Y15.673
G1 F1800 X51.830 Y22.556 E97.02622
G0 F9000 X51.830 Y23.405
G1 F1800 X44.288 Y15.862 E98.94623
G0 F9000 X44.288 Y16.711
G1 F1800 X51.831 Y24.254 E100.86636
G0 F9000 X51.831 Y25.102
G1 F1800 X44.288 Y17.559 E102.78650
G0 F9000 X44.288 Y18.408
G1 F1800 X51.832 Y25.952 E104.70689
G0 F9000 X51.832 Y26.800
G1 F1800 X44.288 Y19.256 E106.62728
G0 F9000 X44.449 Y19.256
G0 X47.442 Y27.127
G0 X47.442 Y30.115
G0 X38.255 Y30.115
G0 X38.255 Y27.127
G0 X41.249 Y19.771
G0 X41.408 Y19.771
G1 F1800 X33.892 Y12.254 E108.54066
G0 F9000 X33.863 Y13.074
G1 F1800 X41.408 Y20.619 E110.46131
G0 F9000 X41.408 Y21.468
G1 F1800 X33.863 Y13.922 E112.38208
G0 F9000 X33.864 Y14.772
G1 F1800 X41.408 Y22.316 E114.30247
G0 F9000 X41.408 Y23.165
G1 F1800 X33.864 Y15.620 E116.22298
G0 F9000 X33.864 Y16.469
G1 F1800 X41.408 Y24.014 E118.14350
G0 F9000 X41.408 Y24.862
G1 F1800 X33.864 Y17.318 E120.06389
G0 F9000 X33.864 Y18.166
G1 F1800 X41.408 Y25.711 E121.98440
G0 F9000 X41.408 Y26.559
G1 F1800 X33.865 Y19.016 E123.90454
G0 F9000 X33.865 Y19.864
G1 F1800 X41.328 Y27.328 E125.80444
G0 F9000 X40.480 Y27.328
G1 F1800 X33.866 Y20.713 E127.48821
G0 F9000 X33.866 Y21.562
G1 F1800 X39.631 Y27.328 E128.95587
G0 F9000 X38.783 Y27.328
G1 F1800 X33.866 Y22.411 E130.20753
G0 F9000 X33.866 Y23.260
G1 F1800 X38.455 Y27.848 E131.37557
G0 F9000 X38.455 Y28.697
G1 F1800 X33.866 Y24.108 E132.54374
G0 F9000 X33.867 Y24.958
G1 F1800 X38.455 Y29.545 E133.71153
G0 F9000 X38.822 Y29.913
G1 F1800 X42.565 Y33.656 E134.66434
G0 F9000 X41.717 Y33.656
G1 F1800 X33.867 Y25.806 E136.66263
G0 F9000 X33.868 Y26.655
G1 F1800 X40.870 Y33.657 E138.44504
G0 F9000 X40.021 Y33.657
G1 F1800 X33.868 Y27.504 E140.01134
G0 F9000 X33.868 Y28.352
G1 F1800 X39.173 Y33.658 E141.36190
G0 F9000 X38.325 Y33.658
G1 F1800 X33.869 Y29.202 E142.49621
G0 F9000 X33.869 Y30.050
G1 F1800 X37.477 Y33.658 E143.41466
G0 F9000 X36.577 Y33.607
G1 F1800 X33.913 Y30.943 E144.09281
G0 F9000 X34.072 Y30.909
G0 X39.671 Y30.074
G0 X39.671 Y29.913
G1 F1800 X43.414 Y33.656 E145.04562
G0 F9000 X44.262 Y33.655
G1 F1800 X40.520 Y29.913 E145.99818
G0 F9000 X41.368 Y29.913
G1 F1800 X45.109 Y33.654 E146.95048
G0 F9000 X45.958 Y33.654
G1 F1800 X42.217 Y29.913 E147.90278
G0 F9000 X43.065 Y29.913
G1 F1800 X46.806 Y33.654 E148.85508
G0 F9000 X47.654 Y33.653
G1 F1800 X43.914 Y29.913 E149.80713
G0 F9000 X44.762 Y29.913
G1 F1800 X48.502 Y33.653 E150.75918
G0 F9000 X49.269 Y33.572
G1 F1800 X45.611 Y29.913 E151.69048
G0 F9000 X46.459 Y29.913
G1 F1800 X49.906 Y33.360 E152.56795
G0 F9000 X50.449 Y33.054
G1 F1800 X47.240 Y29.845 E153.38482
G0 F9000 X47.240 Y28.997
G1 F1800 X50.906 Y32.663 E154.31804
G0 F9000 X51.281 Y32.189
G1 F1800 X47.240 Y28.148 E155.34671
G0 F9000 X46.419 Y27.327
G1 F1800 X44.288 Y25.196 E155.88917
G0 F9000 X44.288 Y26.044
G1 F1800 X45.570 Y27.327 E156.21564
G0 F9000 X44.722 Y27.327
G1 F1800 X44.288 Y26.893 E156.32612
G0 F9000 X44.449 Y26.893
G0 X44.449 Y24.347
G0 X44.288 Y24.347
G1 F1800 X51.574 Y31.634 E158.18096
G0 F9000 X51.770 Y30.981
G1 F1800 X44.288 Y23.499 E160.08557
G0 F9000 X44.288 Y22.650
G1 F1800 X51.833 Y30.196 E162.00634
G0 F9000 X51.833 Y29.347
G1 F1800 X44.288 Y21.802 E163.92698
G0 F9000 X44.288 Y20.953
G1 F1800 X51.833 Y28.498 E165.84762
G0 F9000 X51.833 Y27.649
G1 F1800 X44.288 Y20.105 E167.76814
G0 F9000 X45.549 Y20.105
;LAYER:1
M106 S63
G0 X44.449 Y15.743 Z0.400
G0 X44.049 Y15.433
;TYPE:WALL-OUTER
G1 F1800 X47.001 Y15.433 E167.94526
G1 X47.001 Y13.326 E168.07168
G1 X38.696 Y13.326 E168.56998
G1 X38.696 Y15.433 E168.69640
G1 X41.649 Y15.433 E168.87358
G1 X41.649 Y27.568 E169.60168
G1 X38.696 Y27.568 E169.77886
G1 X38.696 Y29.674 E169.90522
G1 X47.001 Y29.674 E170.40352
G1 X47.001 Y27.568 E170.52988
G1 X44.049 Y27.568 E170.70700
G1 X44.049 Y15.433 E171.43510
G0 F9000 X44.449 Y15.743
G0 X47.442 Y15.874
G0 X47.442 Y12.885
G0 X48.546 Y9.500
G0 X48.554 Y9.101
G1 F1800 X49.111 Y9.144 E171.46862
G1 X49.650 Y9.274 E171.50189
G1 X50.154 Y9.483 E171.53462
G1 X50.628 Y9.773 E171.56796
G1 X51.045 Y10.129 E171.60086
G1 X51.401 Y10.546 E171.63376
G1 X51.691 Y11.020 E171.66710
G1 X51.900 Y11.524 E171.69984
G1 X52.030 Y12.063 E171.73310
G1 X52.074 Y12.621 E171.76669
G1 X52.074 Y30.380 E172.83223
G1 X52.030 Y30.938 E172.86581
G1 X51.900 Y31.477 E172.89908
G1 X51.691 Y31.981 E172.93182
G1 X51.401 Y32.455 E172.96516
G1 X51.045 Y32.872 E172.99805
G1 X50.628 Y33.228 E173.03095
G1 X50.154 Y33.518 E173.06429
G1 X49.650 Y33.727 E173.09703
G1 X49.111 Y33.857 E173.13030
G1 X48.554 Y33.900 E173.16382
G1 X37.144 Y33.900 E173.84842
G1 X36.586 Y33.857 E173.88200
G1 X36.047 Y33.727 E173.91526
G1 X35.543 Y33.518 E173.94800
G1 X35.069 Y33.228 E173.98134
G1 X34.652 Y32.872 E174.01424
G1 X34.296 Y32.455 E174.04714
G1 X34.006 Y31.981 E174.08048
G1 X33.797 Y31.477 E174.11321
G1 X33.667 Y30.938 E174.14648
G1 X33.624 Y30.381 E174.18000
G1 X33.624 Y12.620 E175.24566
G1 X33.667 Y12.063 E175.27918
G1 X33.797 Y11.524 E175.31245
G1 X34.006 Y11.020 E175.34518
G1 X34.296 Y10.546 E175.37852
G1 X34.652 Y10.129 E175.41142
G1 X35.069 Y9.773 E175.44432
G1 X35.543 Y9.483 E175.47766
G1 X36.047 Y9.274 E175.51040
G1 X36.586 Y9.144 E175.54366
G1 X37.144 Y9.101 E175.57724
G1 X48.554 Y9.101 E176.26184
G0 F9000 X48.766 Y9.357
;TYPE:SKIN
G1 F1800 X45.038 Y13.085 E176.57818
G0 F9000 X45.886 Y13.085
G1 F1800 X49.489 Y9.483 E176.88386
G0 F9000 X50.093 Y9.727
G1 F1800 X46.735 Y13.085 E177.16879
G0 F9000 X47.240 Y13.429
G1 F1800 X50.602 Y10.067 E177.45407
G0 F9000 X51.032 Y10.485
G1 F1800 X47.240 Y14.277 E177.77583
G0 F9000 X47.240 Y15.126
G1 F1800 X51.384 Y10.982 E178.12746
G0 F9000 X51.654 Y11.561
G1 F1800 X44.288 Y18.927 E178.75249
G0 F9000 X44.288 Y19.775
G1 F1800 X51.803 Y12.260 E179.39016
G0 F9000 X51.833 Y13.079
G1 F1800 X44.288 Y20.624 E180.03037
G0 F9000 X44.288 Y21.472
G1 F1800 X51.833 Y13.927 E180.67058
G0 F9000 X51.833 Y14.776
G1 F1800 X44.288 Y22.321 E181.31080
G0 F9000 X44.288 Y23.169
G1 F1800 X51.833 Y15.624 E181.95101
G0 F9000 X51.833 Y16.473
G1 F1800 X44.288 Y24.018 E182.59123
G0 F9000 X44.288 Y24.866
G1 F1800 X51.833 Y17.321 E183.23144
G0 F9000 X51.833 Y18.170
G1 F1800 X44.288 Y25.715 E183.87166
G0 F9000 X44.288 Y26.563
G1 F1800 X51.833 Y19.019 E184.51183
G0 F9000 X51.833 Y19.867
G1 F1800 X44.372 Y27.328 E185.14492
G0 F9000 X45.220 Y27.328
G1 F1800 X51.833 Y20.716 E185.70600
G0 F9000 X51.833 Y21.564
G1 F1800 X46.069 Y27.328 E186.19510
G0 F9000 X46.917 Y27.328
G1 F1800 X51.833 Y22.413 E186.61219
G0 F9000 X51.833 Y23.261
G1 F1800 X47.240 Y27.854 E187.00192
G0 F9000 X47.240 Y28.702
G1 F1800 X51.833 Y24.110 E187.39161
G0 F9000 X51.833 Y24.958
G1 F1800 X47.240 Y29.551 E187.78133
G0 F9000 X46.878 Y29.913
G1 F1800 X43.131 Y33.660 E188.09928
G0 F9000 X43.979 Y33.660
G1 F1800 X51.833 Y25.807 E188.76567
G0 F9000 X51.833 Y26.655
G1 F1800 X44.828 Y33.660 E189.36006
G0 F9000 X45.676 Y33.660
G1 F1800 X51.833 Y27.504 E189.88246
G0 F9000 X51.833 Y28.352
G1 F1800 X46.525 Y33.660 E190.33286
G0 F9000 X47.374 Y33.660
G1 F1800 X51.833 Y29.201 E190.71122
