;FLAVOR:UltiGCode
;TIME:5870
;MATERIAL:12484
;MATERIAL2:0
;NOZZLE_DIAMETER:0.600000
;NOZZLE_DIAMETER2:0.600000

;Layer count: 275
;LAYER:-2
;RAFT
G0 F9000 X6.367 Y171.471 Z0.300
;TYPE:SUPPORT
G1 F3000 X206.467 Y171.471 E60.03000
G1 X206.467 Y177.473 E61.83060
G1 X206.518 Y177.473 E61.84590
G1 X206.467 Y192.821 E66.45033
G1 X206.467 Y208.271 E71.08533
G1 X206.466 Y208.271 E71.08563
G1 X206.466 Y208.471 E71.14563
G1 X6.367 Y208.471 E131.17533
G1 X6.367 Y171.471 E142.27533
G0 F9000 X7.500 Y171.371
G1 F3000 X7.500 Y208.571 E153.43533
G0 F9000 X10.500 Y208.571
G1 F3000 X10.500 Y171.371 E164.59533
G0 F9000 X13.500 Y171.371
G1 F3000 X13.500 Y208.571 E175.75533
G0 F9000 X16.500 Y208.571
G1 F3000 X16.500 Y171.371 E186.91533
G0 F9000 X19.500 Y171.371
G1 F3000 X19.500 Y208.571 E198.07533
G0 F9000 X22.500 Y208.571
G1 F3000 X22.500 Y171.371 E209.23533
G0 F9000 X25.500 Y171.371
G1 F3000 X25.500 Y208.571 E220.39533
G0 F9000 X28.500 Y208.571
G1 F3000 X28.500 Y171.371 E231.55533
G0 F9000 X31.500 Y171.371
G1 F3000 X31.500 Y208.571 E242.71533
G0 F9000 X34.500 Y208.571
G1 F3000 X34.500 Y171.371 E253.87533
G0 F9000 X37.500 Y171.371
G1 F3000 X37.500 Y208.571 E265.03533
G0 F9000 X40.500 Y208.571
G1 F3000 X40.500 Y171.371 E276.19533
G0 F9000 X43.500 Y171.371
G1 F3000 X43.500 Y208.571 E287.35533
G0 F9000 X46.500 Y208.571
G1 F3000 X46.500 Y171.371 E298.51533
G0 F9000 X49.500 Y171.371
G1 F3000 X49.500 Y208.571 E309.67533
G0 F9000 X52.500 Y208.571
G1 F3000 X52.500 Y171.371 E320.83533
G0 F9000 X55.500 Y171.371
G1 F3000 X55.500 Y208.571 E331.99533
G0 F9000 X58.500 Y208.571
G1 F3000 X58.500 Y171.371 E343.15533
G0 F9000 X61.500 Y171.371
G1 F3000 X61.500 Y208.571 E354.31533
G0 F9000 X64.500 Y208.571
G1 F3000 X64.500 Y171.371 E365.47533
G0 F9000 X67.500 Y171.371
G1 F3000 X67.500 Y208.571 E376.63533
G0 F9000 X70.500 Y208.571
G1 F3000 X70.500 Y171.371 E387.79533
G0 F9000 X73.500 Y171.371
G1 F3000 X73.500 Y208.571 E398.95533
G0 F9000 X76.500 Y208.571
G1 F3000 X76.500 Y171.371 E410.11533
G0 F9000 X79.500 Y171.371
G1 F3000 X79.500 Y208.571 E421.27533
G0 F9000 X82.500 Y208.571
G1 F3000 X82.500 Y171.371 E432.43533
G0 F9000 X85.500 Y171.371
G1 F3000 X85.500 Y208.571 E443.59533
G0 F9000 X88.500 Y208.571
G1 F3000 X88.500 Y171.371 E454.75533
G0 F9000 X91.500 Y171.371
G1 F3000 X91.500 Y208.571 E465.91533
G0 F9000 X94.500 Y208.571
G1 F3000 X94.500 Y171.371 E477.07533
G0 F9000 X97.500 Y171.371
G1 F3000 X97.500 Y208.571 E488.23533
G0 F9000 X100.500 Y208.571
G1 F3000 X100.500 Y171.371 E499.39533
G0 F9000 X103.500 Y171.371
G1 F3000 X103.500 Y208.571 E510.55533
G0 F9000 X106.500 Y208.571
G1 F3000 X106.500 Y171.371 E521.71533
G0 F9000 X109.500 Y171.371
G1 F3000 X109.500 Y208.571 E532.87533
G0 F9000 X112.500 Y208.571
G1 F3000 X112.500 Y171.371 E544.03533
G0 F9000 X115.500 Y171.371
G1 F3000 X115.500 Y208.571 E555.19533
G0 F9000 X118.500 Y208.571
G1 F3000 X118.500 Y171.371 E566.35533
G0 F9000 X121.500 Y171.371
G1 F3000 X121.500 Y208.571 E577.51533
G0 F9000 X124.500 Y208.571
G1 F3000 X124.500 Y171.371 E588.67533
G0 F9000 X127.500 Y171.371
G1 F3000 X127.500 Y208.571 E599.83533
G0 F9000 X130.500 Y208.571
G1 F3000 X130.500 Y171.371 E610.99533
G0 F9000 X133.500 Y171.371
G1 F3000 X133.500 Y208.571 E622.15533
G0 F9000 X136.500 Y208.571
G1 F3000 X136.500 Y171.371 E633.31533
G0 F9000 X139.500 Y171.371
G1 F3000 X139.500 Y208.571 E644.47533
G0 F9000 X142.500 Y208.571
G1 F3000 X142.500 Y171.371 E655.63533
G0 F9000 X145.500 Y171.371
G1 F3000 X145.500 Y208.571 E666.79533
G0 F9000 X148.500 Y208.571
G1 F3000 X148.500 Y171.371 E677.95533
G0 F9000 X151.500 Y171.371
G1 F3000 X151.500 Y208.571 E689.11533
G0 F9000 X154.500 Y208.571
G1 F3000 X154.500 Y171.371 E700.27533
G0 F9000 X157.500 Y171.371
G1 F3000 X157.500 Y208.571 E711.43533
G0 F9000 X160.500 Y208.571
G1 F3000 X160.500 Y171.371 E722.59533
G0 F9000 X163.500 Y171.371
G1 F3000 X163.500 Y208.571 E733.75533
G0 F9000 X166.500 Y208.571
G1 F3000 X166.500 Y171.371 E744.91533
G0 F9000 X169.500 Y171.371
G1 F3000 X169.500 Y208.571 E756.07533
G0 F9000 X172.500 Y208.571
G1 F3000 X172.500 Y171.371 E767.23533
G0 F9000 X175.500 Y171.371
G1 F3000 X175.500 Y208.571 E778.39533
G0 F9000 X178.500 Y208.571
G1 F3000 X178.500 Y171.371 E789.55533
G0 F9000 X181.500 Y171.371
G1 F3000 X181.500 Y208.571 E800.71533
G0 F9000 X184.500 Y208.571
G1 F3000 X184.500 Y171.371 E811.87533
G0 F9000 X187.500 Y171.371
G1 F3000 X187.500 Y208.571 E823.03533
G0 F9000 X190.500 Y208.571
G1 F3000 X190.500 Y171.371 E834.19533
G0 F9000 X193.500 Y171.371
G1 F3000 X193.500 Y208.571 E845.35533
G0 F9000 X196.500 Y208.571
G1 F3000 X196.500 Y171.371 E856.51533
G0 F9000 X199.500 Y171.371
G1 F3000 X199.500 Y208.571 E867.67533
G0 F9000 X202.500 Y208.571
G1 F3000 X202.500 Y171.371 E878.83533
G0 F9000 X205.500 Y171.371
G1 F3000 X205.500 Y208.571 E889.99533
;LAYER:-1
;RAFT
G0 F9000 X205.681 Y208.510 Z0.570
;TYPE:SUPPORT
G1 F3000 X168.602 Y171.430 E895.65867
G0 F9000 X167.471 Y171.430
G1 F3000 X204.550 Y208.510 E901.32201
G0 F9000 X203.419 Y208.510
G1 F3000 X166.339 Y171.430 E906.98542
G0 F9000 X165.208 Y171.430
G1 F3000 X202.287 Y208.510 E912.64876
G0 F9000 X201.156 Y208.510
G1 F3000 X164.077 Y171.430 E918.31210
G0 F9000 X162.945 Y171.430
G1 F3000 X200.024 Y208.510 E923.97544
G0 F9000 X206.507 Y208.204
G1 F3000 X169.733 Y171.430 E929.59212
G0 F9000 X170.865 Y171.430
G1 F3000 X206.509 Y207.074 E935.03621
G0 F9000 X206.511 Y205.945
G1 F3000 X171.996 Y171.430 E940.30786
G0 F9000 X173.128 Y171.430
G1 F3000 X206.513 Y204.816 E945.40700
G0 F9000 X206.514 Y203.686
G1 F3000 X174.259 Y171.430 E950.33354
G0 F9000 X175.390 Y171.430
G1 F3000 X206.516 Y202.557 E955.08765
G0 F9000 X206.518 Y201.427
G1 F3000 X176.522 Y171.430 E959.66917
G0 F9000 X177.653 Y171.430
G1 F3000 X206.520 Y200.297 E964.07817
G0 F9000 X206.522 Y199.168
G1 F3000 X178.784 Y171.430 E968.31474
G0 F9000 X179.916 Y171.430
G1 F3000 X206.523 Y198.038 E972.37863
G0 F9000 X206.526 Y196.909
G1 F3000 X181.047 Y171.430 E976.27017
G0 F9000 X182.178 Y171.430
G1 F3000 X206.527 Y195.779 E979.98912
G0 F9000 X206.529 Y194.650
G1 F3000 X183.310 Y171.430 E983.53555
G0 F9000 X184.441 Y171.430
G1 F3000 X206.531 Y193.520 E986.90947
G0 F9000 X206.533 Y192.391
G1 F3000 X185.573 Y171.430 E990.11087
G0 F9000 X186.704 Y171.430
G1 F3000 X206.535 Y191.261 E993.13976
G0 F9000 X206.536 Y190.131
G1 F3000 X187.835 Y171.430 E995.99606
G0 F9000 X188.967 Y171.430
G1 F3000 X206.538 Y189.002 E998.67984
G0 F9000 X206.540 Y187.872
G1 F3000 X190.098 Y171.430 E1001.19111
G0 F9000 X191.229 Y171.430
G1 F3000 X206.542 Y186.743 E1003.52994
G0 F9000 X206.544 Y185.614
G1 F3000 X192.361 Y171.430 E1005.69626
G0 F9000 X193.492 Y171.430
G1 F3000 X206.545 Y184.484 E1007.68999
G0 F9000 X206.548 Y183.354
G1 F3000 X194.624 Y171.430 E1009.51120
G0 F9000 X195.755 Y171.430
G1 F3000 X206.549 Y182.224 E1011.15982
G0 F9000 X206.551 Y181.095
G1 F3000 X196.886 Y171.430 E1012.63601
G0 F9000 X198.018 Y171.430
G1 F3000 X206.553 Y179.966 E1013.93968
G0 F9000 X206.555 Y178.836
G1 F3000 X199.149 Y171.430 E1015.07083
G0 F9000 X200.280 Y171.430
G1 F3000 X206.557 Y177.707 E1016.02955
G0 F9000 X206.506 Y176.524
G1 F3000 X201.412 Y171.430 E1016.80758
G0 F9000 X202.543 Y171.430
G1 F3000 X206.506 Y175.393 E1017.41287
G0 F9000 X206.506 Y174.262
G1 F3000 X203.675 Y171.430 E1017.84534
G0 F9000 X204.806 Y171.430
G1 F3000 X206.506 Y173.130 E1018.10499
G0 F9000 X206.506 Y171.999
G1 F3000 X205.937 Y171.430 E1018.19190
G0 F9000 X198.893 Y208.510
G1 F3000 X161.814 Y171.430 E1023.85524
G0 F9000 X160.682 Y171.430
G1 F3000 X197.762 Y208.510 E1029.51865
G0 F9000 X196.630 Y208.510
G1 F3000 X159.551 Y171.430 E1035.18199
G0 F9000 X158.420 Y171.430
G1 F3000 X195.499 Y208.510 E1040.84533
G0 F9000 X194.368 Y208.510
G1 F3000 X157.288 Y171.430 E1046.50875
G0 F9000 X156.157 Y171.430
G1 F3000 X193.236 Y208.510 E1052.17209
G0 F9000 X192.105 Y208.510
G1 F3000 X155.026 Y171.430 E1057.83543
G0 F9000 X153.894 Y171.430
G1 F3000 X190.973 Y208.510 E1063.49877
G0 F9000 X189.842 Y208.510
G1 F3000 X152.763 Y171.430 E1069.16211
G0 F9000 X151.631 Y171.430
G1 F3000 X188.711 Y208.510 E1074.82553
G0 F9000 X187.579 Y208.510
G1 F3000 X150.500 Y171.430 E1080.48887
G0 F9000 X149.369 Y171.430
G1 F3000 X186.448 Y208.510 E1086.15221
G0 F9000 X185.317 Y208.510
G1 F3000 X148.237 Y171.430 E1091.81562
G0 F9000 X147.106 Y171.430
G1 F3000 X184.185 Y208.510 E1097.47896
G0 F9000 X183.054 Y208.510
G1 F3000 X145.975 Y171.430 E1103.14230
G0 F9000 X144.843 Y171.430
G1 F3000 X181.923 Y208.510 E1108.80572
G0 F9000 X180.791 Y208.510
G1 F3000 X143.712 Y171.430 E1114.46906
G0 F9000 X142.581 Y171.430
G1 F3000 X179.660 Y208.510 E1120.13240
G0 F9000 X178.528 Y208.510
G1 F3000 X141.449 Y171.430 E1125.79574
G0 F9000 X140.318 Y171.430
G1 F3000 X177.397 Y208.510 E1131.45908
G0 F9000 X176.266 Y208.510
G1 F3000 X139.186 Y171.430 E1137.12249
G0 F9000 X138.055 Y171.430
G1 F3000 X175.134 Y208.510 E1142.78583
G0 F9000 X174.003 Y208.510
G1 F3000 X136.924 Y171.430 E1148.44917
G0 F9000 X135.792 Y171.430
G1 F3000 X172.872 Y208.510 E1154.11259
G0 F9000 X171.740 Y208.510
G1 F3000 X134.661 Y171.430 E1159.77593
G0 F9000 X133.530 Y171.430
G1 F3000 X170.609 Y208.510 E1165.43927
G0 F9000 X169.477 Y208.510
G1 F3000 X132.398 Y171.430 E1171.10261
G0 F9000 X131.267 Y171.430
G1 F3000 X168.346 Y208.510 E1176.76595
G0 F9000 X167.215 Y208.510
G1 F3000 X130.135 Y171.430 E1182.42936
G0 F9000 X129.004 Y171.430
G1 F3000 X166.083 Y208.510 E1188.09270
G0 F9000 X164.952 Y208.510
G1 F3000 X127.873 Y171.430 E1193.75604
G0 F9000 X126.741 Y171.430
G1 F3000 X163.821 Y208.510 E1199.41946
G0 F9000 X162.689 Y208.510
G1 F3000 X125.610 Y171.430 E1205.08280
G0 F9000 X124.479 Y171.430
G1 F3000 X161.558 Y208.510 E1210.74614
G0 F9000 X160.426 Y208.510
G1 F3000 X123.347 Y171.430 E1216.40948
G0 F9000 X122.216 Y171.430
G1 F3000 X159.295 Y208.510 E1222.07282
G0 F9000 X158.164 Y208.510
G1 F3000 X121.084 Y171.430 E1227.73624
G0 F9000 X119.953 Y171.430
G1 F3000 X157.032 Y208.510 E1233.39958
G0 F9000 X155.901 Y208.510
G1 F3000 X118.822 Y171.430 E1239.06292
G0 F9000 X117.690 Y171.430
G1 F3000 X154.770 Y208.510 E1244.72633
G0 F9000 X153.638 Y208.510
G1 F3000 X116.559 Y171.430 E1250.38967
G0 F9000 X115.428 Y171.430
G1 F3000 X152.507 Y208.510 E1256.05301
G0 F9000 X151.376 Y208.510
G1 F3000 X114.296 Y171.430 E1261.71643
G0 F9000 X113.165 Y171.430
G1 F3000 X150.244 Y208.510 E1267.37977
G0 F9000 X149.113 Y208.510
G1 F3000 X112.033 Y171.430 E1273.04318
G0 F9000 X110.902 Y171.430
G1 F3000 X147.981 Y208.510 E1278.70652
G0 F9000 X146.850 Y208.510
G1 F3000 X109.771 Y171.430 E1284.36986
G0 F9000 X108.639 Y171.430
G1 F3000 X145.719 Y208.510 E1290.03328
G0 F9000 X144.587 Y208.510
G1 F3000 X107.508 Y171.430 E1295.69662
G0 F9000 X106.377 Y171.430
G1 F3000 X143.456 Y208.510 E1301.35996
G0 F9000 X142.325 Y208.510
G1 F3000 X105.245 Y171.430 E1307.02338
G0 F9000 X104.114 Y171.430
G1 F3000 X141.193 Y208.510 E1312.68672
G0 F9000 X140.062 Y208.510
G1 F3000 X102.983 Y171.430 E1318.35005
G0 F9000 X101.851 Y171.430
G1 F3000 X138.930 Y208.510 E1324.01339
G0 F9000 X137.799 Y208.510
G1 F3000 X100.720 Y171.430 E1329.67673
G0 F9000 X99.588 Y171.430
G1 F3000 X136.668 Y208.510 E1335.34015
G0 F9000 X135.536 Y208.510
G1 F3000 X98.457 Y171.430 E1341.00349
G0 F9000 X97.326 Y171.430
G1 F3000 X134.405 Y208.510 E1346.66683
G0 F9000 X133.274 Y208.510
G1 F3000 X96.194 Y171.430 E1352.33025
G0 F9000 X95.063 Y171.430
G1 F3000 X132.142 Y208.510 E1357.99359
G0 F9000 X131.011 Y208.510
G1 F3000 X93.932 Y171.430 E1363.65693
G0 F9000 X92.800 Y171.430
G1 F3000 X129.879 Y208.510 E1369.32027
G0 F9000 X128.748 Y208.510
G1 F3000 X91.669 Y171.430 E1374.98361
G0 F9000 X90.537 Y171.430
G1 F3000 X127.617 Y208.510 E1380.64702
G0 F9000 X126.485 Y208.510
G1 F3000 X89.406 Y171.430 E1386.31036
G0 F9000 X88.275 Y171.430
G1 F3000 X125.354 Y208.510 E1391.97370
G0 F9000 X124.223 Y208.510
G1 F3000 X87.143 Y171.430 E1397.63712
G0 F9000 X86.012 Y171.430
G1 F3000 X123.091 Y208.510 E1403.30046
G0 F9000 X121.960 Y208.510
G1 F3000 X84.881 Y171.430 E1408.96380
G0 F9000 X83.749 Y171.430
G1 F3000 X120.828 Y208.510 E1414.62714
G0 F9000 X119.697 Y208.510
G1 F3000 X82.618 Y171.430 E1420.29048
G0 F9000 X81.486 Y171.430
G1 F3000 X118.566 Y208.510 E1425.95389
G0 F9000 X117.434 Y208.510
G1 F3000 X80.355 Y171.430 E1431.61723
G0 F9000 X79.224 Y171.430
G1 F3000 X116.303 Y208.510 E1437.28057
G0 F9000 X115.172 Y208.510
G1 F3000 X78.092 Y171.430 E1442.94399
G0 F9000 X76.961 Y171.430
G1 F3000 X114.040 Y208.510 E1448.60733
G0 F9000 X112.909 Y208.510
G1 F3000 X75.830 Y171.430 E1454.27067
G0 F9000 X74.698 Y171.430
G1 F3000 X111.778 Y208.510 E1459.93409
G0 F9000 X110.646 Y208.510
G1 F3000 X73.567 Y171.430 E1465.59743
G0 F9000 X72.436 Y171.430
G1 F3000 X109.515 Y208.510 E1471.26077
G0 F9000 X108.383 Y208.510
G1 F3000 X71.304 Y171.430 E1476.92410
G0 F9000 X70.173 Y171.430
G1 F3000 X107.252 Y208.510 E1482.58744
G0 F9000 X106.121 Y208.510
G1 F3000 X69.041 Y171.430 E1488.25086
G0 F9000 X67.910 Y171.430
G1 F3000 X104.989 Y208.510 E1493.91420
G0 F9000 X103.858 Y208.510
G1 F3000 X66.779 Y171.430 E1499.57754
G0 F9000 X65.647 Y171.430
G1 F3000 X102.727 Y208.510 E1505.24096
G0 F9000 X101.595 Y208.510
G1 F3000 X64.516 Y171.430 E1510.90430
G0 F9000 X63.385 Y171.430
G1 F3000 X100.464 Y208.510 E1516.56764
G0 F9000 X99.332 Y208.510
G1 F3000 X62.253 Y171.430 E1522.23098
G0 F9000 X61.122 Y171.430
G1 F3000 X98.201 Y208.510 E1527.89432
G0 F9000 X97.070 Y208.510
G1 F3000 X59.990 Y171.430 E1533.55773
G0 F9000 X58.859 Y171.430
G1 F3000 X95.938 Y208.510 E1539.22107
G0 F9000 X94.807 Y208.510
G1 F3000 X57.728 Y171.430 E1544.88441
G0 F9000 X56.596 Y171.430
G1 F3000 X93.676 Y208.510 E1550.54783
G0 F9000 X92.544 Y208.510
G1 F3000 X55.465 Y171.430 E1556.21117
G0 F9000 X54.334 Y171.430
G1 F3000 X91.413 Y208.510 E1561.87451
G0 F9000 X90.281 Y208.510
G1 F3000 X53.202 Y171.430 E1567.53785
G0 F9000 X52.071 Y171.430
G1 F3000 X89.150 Y208.510 E1573.20119
G0 F9000 X88.019 Y208.510
G1 F3000 X50.939 Y171.430 E1578.86460
G0 F9000 X49.808 Y171.430
G1 F3000 X86.887 Y208.510 E1584.52794
G0 F9000 X85.756 Y208.510
G1 F3000 X48.677 Y171.430 E1590.19128
G0 F9000 X47.545 Y171.430
G1 F3000 X84.625 Y208.510 E1595.85470
G0 F9000 X83.493 Y208.510
G1 F3000 X46.414 Y171.430 E1601.51804
G0 F9000 X45.283 Y171.430
G1 F3000 X82.362 Y208.510 E1607.18138
G0 F9000 X81.231 Y208.510
G1 F3000 X44.151 Y171.430 E1612.84480
G0 F9000 X43.020 Y171.430
G1 F3000 X80.099 Y208.510 E1618.50814
G0 F9000 X78.968 Y208.510
G1 F3000 X41.889 Y171.430 E1624.17148
G0 F9000 X40.757 Y171.430
G1 F3000 X77.836 Y208.510 E1629.83481
G0 F9000 X76.705 Y208.510
G1 F3000 X39.626 Y171.430 E1635.49815
G0 F9000 X38.494 Y171.430
G1 F3000 X75.574 Y208.510 E1641.16157
G0 F9000 X74.442 Y208.510
G1 F3000 X37.363 Y171.430 E1646.82491
G0 F9000 X36.232 Y171.430
G1 F3000 X73.311 Y208.510 E1652.48825
G0 F9000 X72.180 Y208.510
G1 F3000 X35.100 Y171.430 E1658.15167
G0 F9000 X33.969 Y171.430
G1 F3000 X71.048 Y208.510 E1663.81501
G0 F9000 X69.917 Y208.510
G1 F3000 X32.838 Y171.430 E1669.47835
G0 F9000 X31.706 Y171.430
G1 F3000 X68.785 Y208.510 E1675.14169
G0 F9000 X67.654 Y208.510
G1 F3000 X30.575 Y171.430 E1680.80503
G0 F9000 X29.443 Y171.430
G1 F3000 X66.523 Y208.510 E1686.46844
G0 F9000 X65.391 Y208.510
G1 F3000 X28.312 Y171.430 E1692.13178
G0 F9000 X27.181 Y171.430
G1 F3000 X64.260 Y208.510 E1697.79512
G0 F9000 X63.129 Y208.510
G1 F3000 X26.049 Y171.430 E1703.45854
G0 F9000 X24.918 Y171.430
G1 F3000 X61.997 Y208.510 E1709.12188
G0 F9000 X60.866 Y208.510
G1 F3000 X23.787 Y171.430 E1714.78522
G0 F9000 X22.655 Y171.430
G1 F3000 X59.734 Y208.510 E1720.44856
G0 F9000 X58.603 Y208.510
G1 F3000 X21.524 Y171.430 E1726.11190
