;FLAVOR:UltiGCode
;TIME:4644
;MATERIAL:6571
;MATERIAL2:0
;NOZZLE_DIAMETER:0.600000
;NOZZLE_DIAMETER2:0.600000

;Layer count: 100
;LAYER:0
M107
G0 F9000 X82.200 Y49.206 Z0.300
;TYPE:SKIRT
G1 F1800 X87.841 Y49.206 E1.01538
G1 X91.905 Y49.201 E1.74690
G1 X91.905 Y55.813 E2.93706
G1 X92.921 Y55.813 E3.11994
G1 X92.921 Y65.588 E4.87944
G1 X92.800 Y65.588 E4.90122
G1 X92.800 Y159.670 E21.83598
G1 X101.500 Y159.706 E23.40199
G1 X101.500 Y152.853 E24.63553
G1 X121.200 Y152.853 E28.18153
G1 X121.200 Y159.789 E29.43001
G1 X129.900 Y159.825 E30.99603
G1 X129.900 Y58.988 E49.14669
G1 X130.078 Y58.988 E49.17873
G1 X130.078 Y55.813 E49.75023
G1 X131.095 Y55.813 E49.93329
G1 X131.095 Y49.206 E51.12255
G1 X136.736 Y49.206 E52.13793
G1 X140.800 Y49.201 E52.86945
G1 X140.800 Y65.588 E55.81911
G1 X140.600 Y65.588 E55.85511
G1 X140.600 Y177.853 E76.06281
G1 X82.100 Y177.853 E86.59281
G1 X82.100 Y58.988 E107.98851
G1 X82.200 Y58.988 E108.00651
G1 X82.200 Y49.206 E109.76727
G10
G1 Z1.300
G0 F9000 X85.800 Y52.806
;TYPE:WALL-OUTER
G1 Z0.300
G11
G1 F1800 X88.305 Y52.805 E110.21817
G1 X88.305 Y59.413 E111.40761
G1 X89.321 Y59.413 E111.59049
G1 X89.321 Y61.988 E112.05399
G1 X85.800 Y61.988 E112.68777
G1 X85.800 Y52.806 E114.34053
G0 F9000 X86.039 Y53.371
;TYPE:SKIN
G1 F1800 X88.064 Y55.396 E114.85601
G0 F9000 X88.064 Y56.244
G1 F1800 X86.039 Y54.219 E115.37149
G0 F9000 X86.039 Y55.068
G1 F1800 X88.064 Y57.093 E115.88697
G0 F9000 X88.064 Y57.941
G1 F1800 X86.039 Y55.916 E116.40245
G0 F9000 X86.039 Y56.765
G1 F1800 X88.064 Y58.790 E116.91793
G0 F9000 X88.064 Y59.638
G1 F1800 X86.039 Y57.613 E117.43341
G0 F9000 X86.039 Y58.462
G1 F1800 X89.080 Y61.503 E118.20753
G0 F9000 X88.476 Y61.747
G1 F1800 X86.039 Y59.310 E118.82788
G0 F9000 X86.200 Y59.310
G0 X88.078 Y59.813
G0 X88.078 Y59.652
G1 F1800 X89.080 Y60.654 E119.08295
G0 F9000 X88.921 Y60.654
G0 X87.627 Y61.588
G0 X87.627 Y61.747
G1 F1800 X86.039 Y60.159 E119.48719
G0 F9000 X86.039 Y61.007
G1 F1800 X86.778 Y61.747 E119.67544
G0 F9000 X86.778 Y61.588
G0 X88.927 Y59.813
G0 X88.927 Y59.652
G1 F1800 X89.080 Y59.806 E119.71451
G0 F9000 X88.921 Y59.806
G0 X87.864 Y59.854
G0 X87.905 Y54.547
G0 X88.064 Y54.547
G1 F1800 X86.562 Y53.045 E120.09686
G0 F9000 X87.411 Y53.045
G1 F1800 X88.064 Y53.699 E120.26321
G0 F9000 X86.804 Y54.306
G10
G1 Z1.300
G0 X133.678 Y59.413
;TYPE:WALL-OUTER
G1 Z0.300
G11
G1 F1800 X134.695 Y59.413 E120.44627
G1 X134.695 Y52.806 E121.63553
G1 X137.200 Y52.805 E122.08643
G1 X137.200 Y61.988 E123.73937
G1 X133.678 Y61.988 E124.37333
G1 X133.678 Y59.413 E124.83683
G0 F9000 X133.916 Y59.670
;TYPE:SKIN
G1 F1800 X135.994 Y61.748 E125.36580
G0 F9000 X136.842 Y61.748
G1 F1800 X134.747 Y59.652 E125.89923
G0 F9000 X134.934 Y58.991
G1 F1800 X136.958 Y61.015 E126.41446
G0 F9000 X136.958 Y60.167
G1 F1800 X134.934 Y58.142 E126.92981
G0 F9000 X134.934 Y57.294
G1 F1800 X136.958 Y59.318 E127.44504
G0 F9000 X136.958 Y58.469
G1 F1800 X134.934 Y56.445 E127.96026
G0 F9000 X134.934 Y55.596
G1 F1800 X136.958 Y57.621 E128.47562
G0 F9000 X136.958 Y56.772
G1 F1800 X134.934 Y54.748 E128.99084
G0 F9000 X134.934 Y53.899
G1 F1800 X136.958 Y55.924 E129.50620
G0 F9000 X136.958 Y55.075
G1 F1800 X134.934 Y53.051 E130.02142
G0 F9000 X135.777 Y53.045
G1 F1800 X136.958 Y54.227 E130.32218
G0 F9000 X136.958 Y53.378
G1 F1800 X136.625 Y53.045 E130.40695
G0 F9000 X136.625 Y53.206
G0 X135.136 Y59.854
G0 X134.078 Y60.519
G0 X133.916 Y60.519
G1 F1800 X135.145 Y61.748 E130.71981
G0 F9000 X134.297 Y61.748
G1 F1800 X133.916 Y61.367 E130.81679
G0 F9000 X134.078 Y61.367
G0 X135.178 Y60.488
G10
G1 Z1.300
G0 X134.000 Y62.028
;TYPE:SUPPORT
G1 Z0.300
G11
G1 F1800 X134.000 Y175.513 E151.24409
G0 F9000 X134.000 Y174.453
G0 X130.000 Y174.453
G0 X130.000 Y175.513
G1 F1800 X130.000 Y162.166 E153.64655
G0 F9000 X129.996 Y163.225
G0 X133.341 Y163.280
G0 X133.300 Y162.000
G0 X132.239 Y162.000
G1 F1800 X138.259 Y162.000 E154.73015
G0 F9000 X137.200 Y162.000
G0 X137.200 Y166.000
G0 X138.259 Y166.000
G1 F1800 X84.439 Y166.000 E164.41775
G0 F9000 X85.500 Y166.000
G0 X85.500 Y170.000
G0 X84.439 Y170.000
G1 F1800 X138.259 Y170.000 E174.10535
G0 F9000 X137.200 Y170.000
G0 X137.200 Y174.000
G0 X138.259 Y174.000
G1 F1800 X84.439 Y174.000 E183.79295
G0 F9000 X85.500 Y174.000
G0 X86.000 Y174.453
G0 X86.000 Y175.513
G1 F1800 X86.000 Y62.028 E204.22025
G0 F9000 X86.000 Y63.088
G0 X89.490 Y63.088
G0 X90.000 Y62.028
G1 F1800 X90.000 Y175.513 E224.64755
G0 F9000 X90.000 Y174.453
G0 X94.000 Y174.453
G0 X94.000 Y175.513
G1 F1800 X94.000 Y162.015 E227.07719
G0 F9000 X93.996 Y163.074
G0 X90.694 Y163.060
G0 X90.698 Y162.000
G1 F1800 X84.439 Y162.000 E228.20381
G0 F9000 X85.500 Y162.000
G0 X89.359 Y163.097
G0 X97.996 Y163.091
G0 X98.000 Y162.032
G1 F1800 X98.000 Y175.513 E230.63039
G0 F9000 X98.000 Y174.453
G0 X102.000 Y174.453
G0 X102.000 Y175.513
G1 F1800 X102.000 Y162.049 E233.05391
G0 F9000 X101.996 Y163.108
G0 X104.941 Y163.161
G0 X104.900 Y162.000
G0 X103.839 Y162.000
G1 F1800 X109.659 Y162.000 E234.10151
G0 F9000 X110.000 Y162.082
G1 F1800 X110.000 Y175.513 E236.51909
G0 F9000 X110.000 Y174.453
G0 X106.000 Y174.453
G0 X106.000 Y175.513
G1 F1800 X106.000 Y155.193 E240.17669
G0 F9000 X106.000 Y156.253
G0 X104.900 Y158.000
G0 X103.839 Y158.000
G1 F1800 X109.659 Y158.000 E241.22429
G0 F9000 X108.600 Y158.000
G0 X108.559 Y163.177
G0 X114.141 Y163.199
G0 X114.100 Y158.000
G0 X113.039 Y158.000
G1 F1800 X118.859 Y158.000 E242.27189
G0 F9000 X117.800 Y158.000
G0 X117.890 Y156.253
G0 X118.000 Y155.193
G1 F1800 X118.000 Y175.513 E245.92949
G0 F9000 X118.000 Y174.453
G0 X114.000 Y174.453
G0 X114.000 Y175.513
G1 F1800 X114.000 Y155.193 E249.58709
G0 F9000 X114.010 Y156.253
G0 X114.100 Y162.000
G0 X113.039 Y162.000
G1 F1800 X118.859 Y162.000 E250.63469
G0 F9000 X117.800 Y162.000
G0 X117.759 Y163.216
G0 X121.996 Y163.192
G0 X122.000 Y162.133
G1 F1800 X122.000 Y175.513 E253.04309
G0 F9000 X122.000 Y174.453
G0 X126.000 Y174.453
G0 X126.000 Y175.513
G1 F1800 X126.000 Y162.149 E255.44861
G0 F9000 X125.996 Y163.208
G0 X137.290 Y174.453
G0 X138.000 Y175.513
G1 F1800 X138.000 Y62.028 E275.87591
G0 F9000 X137.290 Y63.088
G0 X137.200 Y66.000
G0 X138.259 Y66.000
G1 F1800 X132.239 Y66.000 E276.95951
G0 F9000 X133.300 Y66.000
G0 X133.300 Y70.000
G0 X132.239 Y70.000
G1 F1800 X138.259 Y70.000 E278.04311
G0 F9000 X137.200 Y70.000
G0 X137.200 Y74.000
G0 X138.259 Y74.000
G1 F1800 X132.239 Y74.000 E279.12671
G0 F9000 X133.300 Y74.000
G0 X133.300 Y78.000
G0 X132.239 Y78.000
G1 F1800 X138.259 Y78.000 E280.21031
G0 F9000 X137.200 Y78.000
G0 X137.200 Y82.000
G0 X138.259 Y82.000
G1 F1800 X132.239 Y82.000 E281.29391
G0 F9000 X133.300 Y82.000
G0 X133.300 Y86.000
G0 X132.239 Y86.000
G1 F1800 X138.259 Y86.000 E282.37751
G0 F9000 X137.200 Y86.000
G0 X137.200 Y90.000
G0 X138.259 Y90.000
G1 F1800 X132.239 Y90.000 E283.46111
G0 F9000 X133.300 Y90.000
G0 X133.300 Y94.000
G0 X132.239 Y94.000
G1 F1800 X138.259 Y94.000 E284.54471
G0 F9000 X137.200 Y94.000
G0 X137.200 Y98.000
G0 X138.259 Y98.000
G1 F1800 X132.239 Y98.000 E285.62831
G0 F9000 X133.300 Y98.000
G0 X133.300 Y102.000
G0 X132.239 Y102.000
G1 F1800 X138.259 Y102.000 E286.71191
G0 F9000 X137.200 Y102.000
G0 X137.200 Y106.000
G0 X138.259 Y106.000
G1 F1800 X132.239 Y106.000 E287.79551
G0 F9000 X133.300 Y106.000
G0 X133.300 Y110.000
G0 X132.239 Y110.000
G1 F1800 X138.259 Y110.000 E288.87911
G0 F9000 X137.200 Y110.000
G0 X137.200 Y114.000
G0 X138.259 Y114.000
G1 F1800 X132.239 Y114.000 E289.96271
G0 F9000 X133.300 Y114.000
G0 X133.300 Y118.000
G0 X132.239 Y118.000
G1 F1800 X138.259 Y118.000 E291.04631
G0 F9000 X137.200 Y118.000
G0 X137.200 Y122.000
G0 X138.259 Y122.000
G1 F1800 X132.239 Y122.000 E292.12991
G0 F9000 X133.300 Y122.000
G0 X133.300 Y126.000
G0 X132.239 Y126.000
G1 F1800 X138.259 Y126.000 E293.21351
G0 F9000 X137.200 Y126.000
G0 X137.200 Y130.000
G0 X138.259 Y130.000
G1 F1800 X132.239 Y130.000 E294.29711
G0 F9000 X133.300 Y130.000
G0 X133.300 Y134.000
G0 X132.239 Y134.000
G1 F1800 X138.259 Y134.000 E295.38071
G0 F9000 X137.200 Y134.000
G0 X137.200 Y138.000
G0 X138.259 Y138.000
G1 F1800 X132.239 Y138.000 E296.46431
G0 F9000 X133.300 Y138.000
G0 X133.300 Y142.000
G0 X132.239 Y142.000
G1 F1800 X138.259 Y142.000 E297.54791
G0 F9000 X137.200 Y142.000
G0 X137.200 Y146.000
G0 X138.259 Y146.000
G1 F1800 X132.239 Y146.000 E298.63151
G0 F9000 X133.300 Y146.000
G0 X133.300 Y150.000
G0 X132.239 Y150.000
G1 F1800 X138.259 Y150.000 E299.71511
G0 F9000 X137.200 Y150.000
G0 X137.200 Y154.000
G0 X138.259 Y154.000
G1 F1800 X132.239 Y154.000 E300.79871
G0 F9000 X133.300 Y154.000
G0 X133.300 Y158.000
G0 X132.239 Y158.000
G1 F1800 X138.259 Y158.000 E301.88231
G0 F9000 X137.200 Y158.000
G0 X137.159 Y174.412
G0 X85.541 Y174.412
G0 X89.400 Y158.000
G0 X90.459 Y158.000
G1 F1800 X84.439 Y158.000 E302.96591
G0 F9000 X85.500 Y158.000
G0 X85.500 Y154.000
G0 X84.439 Y154.000
G1 F1800 X90.459 Y154.000 E304.04951
G0 F9000 X89.400 Y154.000
G0 X89.400 Y150.000
G0 X90.459 Y150.000
G1 F1800 X84.439 Y150.000 E305.13311
G0 F9000 X85.500 Y150.000
G0 X85.500 Y146.000
G0 X84.439 Y146.000
G1 F1800 X90.459 Y146.000 E306.21671
G0 F9000 X89.400 Y146.000
G0 X89.400 Y142.000
G0 X90.459 Y142.000
G1 F1800 X84.439 Y142.000 E307.30031
G0 F9000 X85.500 Y142.000
G0 X85.500 Y138.000
G0 X84.439 Y138.000
G1 F1800 X90.459 Y138.000 E308.38391
G0 F9000 X89.400 Y138.000
G0 X89.400 Y134.000
G0 X90.459 Y134.000
G1 F1800 X84.439 Y134.000 E309.46751
G0 F9000 X85.500 Y134.000
G0 X85.500 Y130.000
G0 X84.439 Y130.000
G1 F1800 X90.459 Y130.000 E310.55111
G0 F9000 X89.400 Y130.000
G0 X89.400 Y126.000
G0 X90.459 Y126.000
G1 F1800 X84.439 Y126.000 E311.63471
G0 F9000 X85.500 Y126.000
G0 X85.500 Y122.000
G0 X84.439 Y122.000
G1 F1800 X90.459 Y122.000 E312.71831
G0 F9000 X89.400 Y122.000
G0 X89.400 Y118.000
G0 X90.459 Y118.000
G1 F1800 X84.439 Y118.000 E313.80191
G0 F9000 X85.500 Y118.000
G0 X85.500 Y114.000
G0 X84.439 Y114.000
G1 F1800 X90.459 Y114.000 E314.88551
G0 F9000 X89.400 Y114.000
G0 X89.400 Y110.000
G0 X90.459 Y110.000
G1 F1800 X84.439 Y110.000 E315.96911
G0 F9000 X85.500 Y110.000
G0 X85.500 Y106.000
G0 X84.439 Y106.000
G1 F1800 X90.459 Y106.000 E317.05271
G0 F9000 X89.400 Y106.000
G0 X89.400 Y102.000
G0 X90.459 Y102.000
G1 F1800 X84.439 Y102.000 E318.13631
G0 F9000 X85.500 Y102.000
G0 X85.500 Y98.000
G0 X84.439 Y98.000
G1 F1800 X90.459 Y98.000 E319.21991
G0 F9000 X89.400 Y98.000
G0 X89.400 Y94.000
G0 X90.459 Y94.000
G1 F1800 X84.439 Y94.000 E320.30351
G0 F9000 X85.500 Y94.000
G0 X85.500 Y90.000
G0 X84.439 Y90.000
G1 F1800 X90.459 Y90.000 E321.38711
G0 F9000 X89.400 Y90.000
G0 X89.400 Y86.000
G0 X90.459 Y86.000
G1 F1800 X84.439 Y86.000 E322.47071
G0 F9000 X85.500 Y86.000
G0 X85.500 Y82.000
G0 X84.439 Y82.000
G1 F1800 X90.459 Y82.000 E323.55431
G0 F9000 X89.400 Y82.000
G0 X89.400 Y78.000
G0 X90.459 Y78.000
G1 F1800 X84.439 Y78.000 E324.63791
G0 F9000 X85.500 Y78.000
G0 X85.500 Y74.000
G0 X84.439 Y74.000
G1 F1800 X90.459 Y74.000 E325.72151
G0 F9000 X89.400 Y74.000
G0 X89.400 Y70.000
G0 X90.459 Y70.000
G1 F1800 X84.439 Y70.000 E326.80511
G0 F9000 X85.500 Y70.000
G0 X85.500 Y66.000
G0 X84.439 Y66.000
G1 F1800 X90.459 Y66.000 E327.88871
;LAYER:1
M106 S63
G10
G1 Z1.300
G0 F9000 X89.321 Y61.988 Z0.400
;TYPE:WALL-OUTER
G1 Z0.400
G11
G1 F1800 X85.800 Y61.988 E328.09997
G1 X85.800 Y52.502 E328.66913
G1 X88.305 Y52.501 E328.81943
G1 X88.305 Y59.413 E329.23415
G1 X89.321 Y59.413 E329.29511
G1 X89.321 Y61.988 E329.44961
G0 F9000 X88.865 Y61.748
;TYPE:SKIN
G1 F1800 X89.079 Y61.533 E329.46781
G0 F9000 X89.079 Y60.685
G1 F1800 X88.017 Y61.748 E329.55797
G0 F9000 X87.168 Y61.748
G1 F1800 X89.079 Y59.836 E329.72017
G0 F9000 X88.415 Y59.652
G1 F1800 X86.320 Y61.748 E329.89797
G0 F9000 X86.039 Y61.180
G1 F1800 X88.063 Y59.155 E330.06976
G0 F9000 X88.063 Y58.307
G1 F1800 X86.039 Y60.331 E330.24150
G0 F9000 X86.039 Y59.483
G1 F1800 X88.063 Y57.458 E330.41329
G0 F9000 X88.063 Y56.610
G1 F1800 X86.039 Y58.634 E330.58503
G0 F9000 X86.039 Y57.786
G1 F1800 X88.063 Y55.761 E330.75681
G0 F9000 X88.063 Y54.913
G1 F1800 X86.039 Y56.937 E330.92855
G0 F9000 X86.039 Y56.089
G1 F1800 X88.063 Y54.064 E331.10034
G0 F9000 X88.063 Y53.216
G1 F1800 X86.039 Y55.240 E331.27208
G0 F9000 X86.039 Y54.392
G1 F1800 X87.690 Y52.740 E331.41222
G0 F9000 X86.841 Y52.740
G1 F1800 X86.039 Y53.543 E331.48031
G0 F9000 X86.805 Y53.543
G10
G1 Z1.400
G0 X133.678 Y59.413
;TYPE:WALL-OUTER
G1 Z0.400
G11
G1 F1800 X134.695 Y59.413 E331.54133
G1 X134.695 Y52.502 E331.95599
G1 X137.200 Y52.501 E332.10629
G1 X137.200 Y61.988 E332.67551
G1 X133.678 Y61.988 E332.88683
G1 X133.678 Y59.413 E333.04133
G0 F9000 X134.235 Y59.652
;TYPE:SKIN
G1 F1800 X133.917 Y59.971 E333.06836
G0 F9000 X133.917 Y60.819
G1 F1800 X136.958 Y57.778 E333.32639
G0 F9000 X136.958 Y58.626
G1 F1800 X133.917 Y61.668 E333.58447
G0 F9000 X134.686 Y61.748
G1 F1800 X136.958 Y59.475 E333.77730
G0 F9000 X136.800 Y59.475
G0 X135.095 Y58.954
G0 X134.934 Y58.954
G1 F1800 X136.958 Y56.929 E333.94909
G0 F9000 X136.958 Y56.081
G1 F1800 X134.934 Y58.105 E334.12083
G0 F9000 X134.934 Y57.257
G1 F1800 X136.958 Y55.232 E334.29261
G0 F9000 X136.958 Y54.384
G1 F1800 X134.934 Y56.408 E334.46435
G0 F9000 X134.934 Y55.560
G1 F1800 X136.958 Y53.535 E334.63614
G0 F9000 X136.905 Y52.740
G1 F1800 X134.934 Y54.711 E334.80338
G0 F9000 X134.934 Y53.863
G1 F1800 X136.056 Y52.740 E334.89863
G0 F9000 X135.208 Y52.740
G1 F1800 X134.934 Y53.014 E334.92188
G0 F9000 X135.095 Y53.014
G0 X136.800 Y60.323
G0 X136.958 Y60.323
G1 F1800 X135.534 Y61.748 E335.04275
G0 F9000 X136.383 Y61.748
G1 F1800 X136.958 Y61.172 E335.09159
G0 F9000 X135.700 Y60.488
G10
G1 Z1.400
G0 X134.000 Y62.928
;TYPE:SUPPORT
G1 Z0.400
G11
G1 F1800 X134.000 Y174.613 E341.79269
G0 F9000 X134.000 Y174.453
G0 X130.000 Y174.453
G0 X130.000 Y174.613
G1 F1800 X130.000 Y163.066 E342.48551
G0 F9000 X129.999 Y163.225
G0 X125.999 Y163.208
G0 X126.000 Y163.049
G1 F1800 X126.000 Y174.613 E343.17935
G0 F9000 X126.000 Y174.453
G0 X122.000 Y174.453
G0 X122.000 Y174.613
G1 F1800 X122.000 Y163.033 E343.87415
G0 F9000 X121.999 Y163.192
G0 X117.999 Y163.175
G0 X118.000 Y163.016
G1 F1800 X118.000 Y174.613 E344.56997
G0 F9000 X118.000 Y174.453
G0 X114.000 Y174.453
G0 X114.000 Y174.613
G1 F1800 X114.000 Y156.093 E345.68117
G0 F9000 X114.010 Y156.253
G0 X114.141 Y163.199
G0 X108.559 Y163.177
G0 X106.000 Y156.253
G0 X106.000 Y156.093
G1 F1800 X106.000 Y174.613 E346.79237
G0 F9000 X106.000 Y174.453
G0 X102.000 Y174.453
G0 X102.000 Y174.613
G1 F1800 X102.000 Y162.949 E347.49221
G0 F9000 X101.999 Y163.108
G0 X109.999 Y163.141
G0 X110.000 Y162.982
G1 F1800 X110.000 Y174.613 E348.19007
G0 F9000 X110.000 Y174.453
G0 X98.000 Y174.453
G0 X98.000 Y174.613
G1 F1800 X98.000 Y162.932 E348.89093
G0 F9000 X97.999 Y163.091
G0 X93.999 Y163.074
G0 X94.000 Y162.915
G1 F1800 X94.000 Y174.613 E349.59281
G0 F9000 X94.000 Y174.453
G0 X90.000 Y174.453
G0 X90.000 Y174.613
G1 F1800 X90.000 Y162.898 E350.29571
G0 F9000 X89.999 Y163.058
G0 X86.000 Y174.453
G0 X86.000 Y174.613
G1 F1800 X86.000 Y62.928 E356.99681
;LAYER:2
M106 S127
G0 F9000 X85.800 Y61.988 Z0.500
;TYPE:WALL-OUTER
G1 F1800 X85.800 Y52.287 E357.57887
G1 X88.305 Y52.286 E357.72917
G1 X88.305 Y59.413 E358.15679
G1 X89.321 Y59.413 E358.21775
G1 X89.321 Y61.988 E358.37225
G1 X85.800 Y61.988 E358.58351
G0 F9000 X86.778 Y61.747
;TYPE:SKIN
G1 F1800 X86.039 Y61.007 E358.64625
G0 F9000 X86.039 Y60.159
G1 F1800 X87.627 Y61.747 E358.78100
G0 F9000 X88.476 Y61.747
G1 F1800 X86.039 Y59.310 E358.98779
G0 F9000 X86.039 Y58.462
G1 F1800 X89.080 Y61.503 E359.24582
