;FLAVOR:UltiGCode
;TIME:157
;MATERIAL:115
;MATERIAL2:0
;NOZZLE_DIAMETER:0.600000
;NOZZLE_DIAMETER2:0.600000

;Layer count: 46
;LAYER:0
M107
G0 F9000 X105.948 Y105.345 Z0.300
;TYPE:SKIRT
G1 F1800 X106.835 Y104.655 E0.20228
G1 X107.702 Y104.137 E0.38407
G1 X108.585 Y103.752 E0.55746
G1 X109.372 Y103.498 E0.70632
G1 X110.187 Y103.324 E0.85632
G1 X111.035 Y103.232 E1.00986
G1 X111.702 Y103.227 E1.12992
G1 X112.118 Y103.244 E1.20487
G1 X112.984 Y103.354 E1.36200
G1 X113.904 Y103.569 E1.53206
G1 X115.104 Y104.040 E1.76410
G1 X116.132 Y104.628 E1.97727
G1 X117.036 Y105.335 E2.18385
G1 X117.949 Y106.294 E2.42219
G1 X118.616 Y107.261 E2.63364
G1 X119.035 Y108.061 E2.79619
G1 X119.384 Y108.968 E2.97112
G1 X119.597 Y109.770 E3.12049
G1 X119.736 Y110.610 E3.27374
G1 X119.783 Y111.569 E3.44657
G1 X119.723 Y112.545 E3.62258
G1 X119.432 Y113.903 E3.87257
G1 X119.083 Y114.828 E4.05053
G1 X118.591 Y115.782 E4.24374
G1 X118.073 Y116.542 E4.40929
G1 X117.374 Y117.347 E4.60119
G1 X116.382 Y118.194 E4.83599
G1 X115.392 Y118.815 E5.04634
G1 X114.539 Y119.207 E5.21532
G1 X113.633 Y119.503 E5.38688
G1 X112.811 Y119.677 E5.53812
G1 X111.966 Y119.769 E5.69112
G1 X111.298 Y119.774 E5.81136
G1 X110.882 Y119.757 E5.88631
G1 X110.014 Y119.647 E6.04380
G1 X109.202 Y119.457 E6.19390
G1 X108.400 Y119.181 E6.34657
G1 X107.437 Y118.726 E6.53829
G1 X106.344 Y117.987 E6.77578
G1 X105.486 Y117.196 E6.98583
G1 X104.889 Y116.491 E7.15212
G1 X104.365 Y115.704 E7.32231
G1 X103.965 Y114.940 E7.47754
G1 X103.616 Y114.033 E7.65246
G1 X103.403 Y113.231 E7.80183
G1 X103.263 Y112.384 E7.95636
G1 X103.219 Y111.432 E8.12790
G1 X103.275 Y110.463 E8.30261
G1 X103.568 Y109.098 E8.55391
G1 X103.917 Y108.173 E8.73187
G1 X104.409 Y107.219 E8.92508
G1 X104.981 Y106.381 E9.10771
G1 X105.948 Y105.345 E9.36280
G0 F9000 X106.354 Y105.790
G1 F1800 X107.174 Y105.151 E9.54992
G1 X107.977 Y104.672 E9.71822
G1 X108.798 Y104.314 E9.87944
G1 X109.527 Y104.078 E10.01737
G1 X110.283 Y103.917 E10.15650
G1 X111.069 Y103.832 E10.29880
G1 X111.692 Y103.827 E10.41095
G1 X112.069 Y103.842 E10.47886
G1 X112.878 Y103.945 E10.62566
G1 X113.726 Y104.143 E10.78240
G1 X114.844 Y104.582 E10.99860
G1 X115.797 Y105.128 E11.19630
G1 X116.632 Y105.781 E11.38710
G1 X117.482 Y106.673 E11.60889
G1 X118.101 Y107.571 E11.80521
G1 X118.488 Y108.309 E11.95520
G1 X118.812 Y109.154 E12.11810
G1 X119.010 Y109.896 E12.25634
G1 X119.138 Y110.674 E12.39826
G1 X119.182 Y111.566 E12.55901
G1 X119.127 Y112.464 E12.72096
G1 X118.854 Y113.734 E12.95478
G1 X118.534 Y114.584 E13.11826
G1 X118.075 Y115.474 E13.29851
G1 X117.597 Y116.175 E13.45123
G1 X116.951 Y116.920 E13.62873
G1 X116.026 Y117.709 E13.84757
G1 X115.106 Y118.286 E14.04304
G1 X114.320 Y118.648 E14.19881
G1 X113.477 Y118.922 E14.35836
G1 X112.716 Y119.084 E14.49841
G1 X111.931 Y119.169 E14.64054
G1 X111.308 Y119.174 E14.75268
G1 X110.932 Y119.159 E14.82042
G1 X110.120 Y119.056 E14.96775
G1 X109.368 Y118.880 E15.10676
G1 X108.626 Y118.624 E15.24805
G1 X107.735 Y118.203 E15.42543
G1 X106.717 Y117.515 E15.64660
G1 X105.920 Y116.781 E15.84162
G1 X105.370 Y116.130 E15.99503
G1 X104.882 Y115.397 E16.15353
G1 X104.512 Y114.692 E16.29685
G1 X104.188 Y113.847 E16.45974
G1 X103.990 Y113.105 E16.59798
G1 X103.861 Y112.321 E16.74100
G1 X103.820 Y111.435 E16.90065
G1 X103.872 Y110.544 E17.06130
G1 X104.146 Y109.267 E17.29639
G1 X104.466 Y108.417 E17.45987
G1 X104.925 Y107.527 E17.64012
G1 X105.451 Y106.757 E17.80798
G1 X106.354 Y105.790 E18.04613
G0 F9000 X106.760 Y106.234
G1 F1800 X107.514 Y105.647 E18.21813
G1 X108.252 Y105.207 E18.37279
G1 X109.011 Y104.875 E18.52190
G1 X109.682 Y104.658 E18.64884
G1 X110.378 Y104.510 E18.77692
G1 X111.104 Y104.431 E18.90838
G1 X111.683 Y104.427 E19.01260
G1 X112.019 Y104.441 E19.07313
G1 X112.772 Y104.537 E19.20977
G1 X113.547 Y104.718 E19.35302
G1 X114.583 Y105.125 E19.55338
G1 X115.461 Y105.627 E19.73542
G1 X116.228 Y106.226 E19.91060
G1 X117.015 Y107.053 E20.11609
G1 X117.587 Y107.882 E20.29738
G1 X117.940 Y108.557 E20.43449
G1 X118.241 Y109.339 E20.58532
G1 X118.422 Y110.023 E20.71268
G1 X118.540 Y110.737 E20.84294
G1 X118.581 Y111.562 E20.99163
G1 X118.531 Y112.382 E21.13950
G1 X118.277 Y113.564 E21.35712
G1 X117.985 Y114.340 E21.50636
G1 X117.559 Y115.166 E21.67365
G1 X117.121 Y115.808 E21.81354
G1 X116.527 Y116.493 E21.97674
G1 X115.670 Y117.224 E22.17950
G1 X114.820 Y117.757 E22.36009
G1 X114.101 Y118.088 E22.50256
G1 X113.322 Y118.342 E22.65005
G1 X112.621 Y118.491 E22.77905
G1 X111.897 Y118.570 E22.91014
G1 X111.317 Y118.574 E23.01454
G1 X110.982 Y118.560 E23.07490
G1 X110.227 Y118.464 E23.21189
G1 X109.535 Y118.302 E23.33982
G1 X108.853 Y118.068 E23.46960
G1 X108.033 Y117.680 E23.63289
G1 X107.091 Y117.043 E23.83758
G1 X106.354 Y116.365 E24.01784
G1 X105.850 Y115.769 E24.15833
G1 X105.399 Y115.091 E24.30491
G1 X105.060 Y114.444 E24.43639
G1 X104.759 Y113.662 E24.58721
G1 X104.578 Y112.978 E24.71457
G1 X104.459 Y112.258 E24.84593
G1 X104.421 Y111.439 E24.99351
G1 X104.468 Y110.625 E25.14027
G1 X104.723 Y109.437 E25.35898
G1 X105.015 Y108.661 E25.50822
G1 X105.441 Y107.835 E25.67551
G1 X105.920 Y107.133 E25.82849
G1 X106.760 Y106.234 E26.04995
G0 F9000 X107.166 Y106.678
G1 F1800 X107.853 Y106.144 E26.20657
G1 X108.527 Y105.741 E26.34793
G1 X109.223 Y105.437 E26.48464
G1 X109.837 Y105.239 E26.60076
G1 X110.473 Y105.103 E26.71783
G1 X111.138 Y105.031 E26.83823
G1 X111.673 Y105.028 E26.93453
G1 X111.969 Y105.039 E26.98785
G1 X112.665 Y105.128 E27.11415
G1 X113.368 Y105.292 E27.24408
G1 X114.323 Y105.667 E27.42876
G1 X115.126 Y106.126 E27.59525
G1 X115.824 Y106.672 E27.75476
G1 X116.547 Y107.432 E27.94358
G1 X117.072 Y108.193 E28.10999
G1 X117.393 Y108.804 E28.23422
G1 X117.669 Y109.524 E28.37302
G1 X117.835 Y110.149 E28.48942
G1 X117.943 Y110.801 E28.60838
G1 X117.980 Y111.558 E28.74480
G1 X117.935 Y112.300 E28.87861
G1 X117.700 Y113.394 E29.08002
G1 X117.436 Y114.095 E29.21485
G1 X117.042 Y114.858 E29.36942
G1 X116.645 Y115.441 E29.49638
G1 X116.103 Y116.066 E29.64529
G1 X115.314 Y116.739 E29.83196
G1 X114.534 Y117.228 E29.99767
G1 X113.882 Y117.528 E30.12686
G1 X113.166 Y117.762 E30.26244
G1 X112.526 Y117.898 E30.38022
G1 X111.862 Y117.970 E30.50044
G1 X111.327 Y117.973 E30.59674
G1 X111.032 Y117.962 E30.64988
G1 X110.333 Y117.873 E30.77671
G1 X109.701 Y117.725 E30.89355
G1 X109.079 Y117.511 E31.01195
G1 X108.331 Y117.157 E31.16091
G1 X107.464 Y116.572 E31.34917
G1 X106.788 Y115.949 E31.51464
G1 X106.331 Y115.408 E31.64212
G1 X105.916 Y114.784 E31.77701
G1 X105.607 Y114.197 E31.89641
G1 X105.331 Y113.477 E32.03521
G1 X105.165 Y112.852 E32.15161
G1 X105.057 Y112.195 E32.27146
G1 X105.022 Y111.442 E32.40714
G1 X105.064 Y110.706 E32.53984
G1 X105.300 Y109.607 E32.74217
G1 X105.564 Y108.906 E32.87700
G1 X105.958 Y108.143 E33.03157
G1 X106.390 Y107.509 E33.16966
G1 X107.166 Y106.678 E33.37432
G10
G1 Z1.300
G0 F9000 X109.602 Y109.344
;TYPE:WALL-OUTER
G1 Z0.300
G11
G1 F1800 X109.888 Y109.122 E33.43949
G1 X110.180 Y108.948 E33.50068
G1 X110.506 Y108.806 E33.56468
G1 X110.766 Y108.721 E33.61392
G1 X111.043 Y108.662 E33.66490
G1 X111.342 Y108.630 E33.71902
G1 X111.609 Y108.628 E33.76709
G1 X111.668 Y108.630 E33.77771
G1 X112.033 Y108.677 E33.84395
G1 X112.294 Y108.738 E33.89220
G1 X112.765 Y108.923 E33.98328
G1 X113.112 Y109.122 E34.05529
G1 X113.399 Y109.346 E34.12082
G1 X113.745 Y109.709 E34.21109
G1 X113.984 Y110.055 E34.28678
G1 X114.107 Y110.291 E34.33468
G1 X114.239 Y110.635 E34.40101
G1 X114.311 Y110.906 E34.45148
G1 X114.357 Y111.181 E34.50167
G1 X114.375 Y111.545 E34.56727
G1 X114.358 Y111.809 E34.61488
G1 X114.238 Y112.372 E34.71850
G1 X114.141 Y112.629 E34.76795
G1 X113.942 Y113.015 E34.84612
G1 X113.790 Y113.237 E34.89454
G1 X113.557 Y113.506 E34.95860
G1 X113.176 Y113.831 E35.04874
G1 X112.823 Y114.052 E35.12371
G1 X112.564 Y114.172 E35.17509
G1 X112.228 Y114.281 E35.23867
G1 X111.658 Y114.371 E35.34254
G1 X111.391 Y114.373 E35.39061
G1 X111.332 Y114.371 E35.40123
G1 X110.967 Y114.324 E35.46747
G1 X110.702 Y114.262 E35.51646
G1 X110.435 Y114.170 E35.56729
G1 X110.123 Y114.023 E35.62938
G1 X109.702 Y113.739 E35.72079
G1 X109.392 Y113.453 E35.79671
G1 X109.213 Y113.241 E35.84665
G1 X109.017 Y112.946 E35.91040
G1 X108.893 Y112.710 E35.95839
G1 X108.761 Y112.366 E36.02471
G1 X108.689 Y112.095 E36.07518
G1 X108.643 Y111.820 E36.12537
G1 X108.626 Y111.455 E36.19114
G1 X108.642 Y111.192 E36.23857
G1 X108.763 Y110.627 E36.34258
G1 X108.859 Y110.372 E36.39162
G1 X109.058 Y109.986 E36.46979
G1 X109.209 Y109.764 E36.51812
G1 X109.602 Y109.344 E36.62165
G0 F9000 X109.872 Y109.639
G0 X110.430 Y110.180
G0 X110.703 Y110.473
G1 F1800 X110.537 Y110.627 E36.66241
G1 X110.401 Y110.807 E36.70302
G1 X110.299 Y111.006 E36.74327
G1 X110.231 Y111.213 E36.78249
G1 X110.201 Y111.439 E36.82353
G1 X110.211 Y111.675 E36.86604
G1 X110.262 Y111.897 E36.90704
G1 X110.350 Y112.105 E36.94770
G1 X110.473 Y112.296 E36.98859
G1 X110.626 Y112.463 E37.02936
G1 X110.806 Y112.599 E37.06997
G1 X111.005 Y112.703 E37.11038
G1 X111.213 Y112.770 E37.14972
G1 X111.438 Y112.800 E37.19058
G1 X111.674 Y112.791 E37.23309
G1 X111.896 Y112.740 E37.27409
G1 X112.104 Y112.652 E37.31474
G1 X112.296 Y112.529 E37.35578
G1 X112.462 Y112.375 E37.39654
G1 X112.600 Y112.195 E37.43737
G1 X112.702 Y111.994 E37.47794
G1 X112.769 Y111.788 E37.51693
G1 X112.800 Y111.563 E37.55781
G1 X112.790 Y111.326 E37.60051
G1 X112.739 Y111.104 E37.64151
G1 X112.652 Y110.897 E37.68193
G1 X112.535 Y110.712 E37.72133
G1 X112.374 Y110.538 E37.76400
G1 X112.194 Y110.401 E37.80472
G1 X111.995 Y110.298 E37.84505
G1 X111.787 Y110.231 E37.88439
G1 X111.562 Y110.201 E37.92525
G1 X111.327 Y110.210 E37.96758
G1 X111.103 Y110.261 E38.00893
G1 X110.895 Y110.349 E38.04958
G1 X110.703 Y110.473 E38.09072
G0 F9000 X110.645 Y110.221
;TYPE:SKIN
G1 F1800 X109.653 Y109.653 E38.28859
G1 X110.221 Y110.645 E38.49435
G0 F9000 X109.982 Y111.255
G1 F1800 X109.118 Y110.391 E38.71429
G0 F9000 X108.917 Y111.039
G1 F1800 X110.211 Y112.333 E39.04369
G0 F9000 X110.683 Y112.804
G1 F1800 X111.959 Y114.080 E39.36851
G0 F9000 X112.611 Y113.884
G1 F1800 X111.748 Y113.021 E39.58819
G0 F9000 X112.352 Y112.776
G1 F1800 X113.344 Y113.344 E39.78572
G1 X112.779 Y112.355 E39.99074
G0 F9000 X113.017 Y111.744
G1 F1800 X113.880 Y112.608 E40.21055
G0 F9000 X114.080 Y111.959
G1 F1800 X112.792 Y110.671 E40.53842
G0 F9000 X112.317 Y110.196
G1 F1800 X111.031 Y108.910 E40.86579
G0 F9000 X110.390 Y109.117
G1 F1800 X111.253 Y109.980 E41.08547
G0 F9000 X111.868 Y108.898
G1 F1800 X114.105 Y111.135 E41.65492
G0 F9000 X113.948 Y111.160
G0 X112.338 Y113.096
G0 X111.151 Y113.946
G0 X111.131 Y114.101
G1 F1800 X108.893 Y111.862 E42.22475
;LAYER:1
M106 S127
G0 F9000 X108.626 Y111.442 Z0.400
;TYPE:WALL-OUTER
G1 F600 X108.643 Y111.186 E42.24014
G1 X108.693 Y110.888 E42.25827
G1 X108.850 Y110.395 E42.28931
G1 X109.020 Y110.048 E42.31250
G1 X109.056 Y109.989 E42.31664
G1 X109.392 Y109.548 E42.34991
G1 X109.641 Y109.309 E42.37062
G1 X109.887 Y109.122 E42.38916
G1 X110.180 Y108.948 E42.40960
G1 X110.693 Y108.743 E42.44275
G1 X111.057 Y108.660 E42.46515
G1 X111.342 Y108.630 E42.48235
G1 X111.586 Y108.627 E42.49699
G1 X111.678 Y108.631 E42.50251
G1 X112.225 Y108.719 E42.53575
G1 X112.564 Y108.830 E42.55716
G1 X112.908 Y108.995 E42.58005
G1 X113.126 Y109.131 E42.59547
G1 X113.425 Y109.369 E42.61839
G1 X113.614 Y109.552 E42.63418
G1 X113.841 Y109.837 E42.65604
G1 X113.991 Y110.069 E42.67262
G1 X114.112 Y110.304 E42.68848
G1 X114.243 Y110.653 E42.71084
G1 X114.357 Y111.185 E42.74349
G1 X114.374 Y111.558 E42.76589
G1 X114.357 Y111.815 E42.78134
G1 X114.307 Y112.113 E42.79947
G1 X114.150 Y112.606 E42.83052
G1 X113.948 Y113.007 E42.85746
G1 X113.605 Y113.456 E42.89136
G1 X113.359 Y113.692 E42.91181
G1 X113.114 Y113.878 E42.93027
G1 X112.820 Y114.053 E42.95080
G1 X112.307 Y114.258 E42.98394
G1 X111.944 Y114.340 E43.00627
G1 X111.658 Y114.371 E43.02353
G1 X111.411 Y114.373 E43.03835
G1 X111.322 Y114.370 E43.04370
G1 X110.775 Y114.282 E43.07694
G1 X110.440 Y114.172 E43.09810
G1 X109.943 Y113.915 E43.13167
G1 X109.453 Y113.516 E43.16958
G1 X109.211 Y113.238 E43.19170
G1 X109.011 Y112.936 E43.21343
G1 X108.888 Y112.697 E43.22956
G1 X108.757 Y112.348 E43.25192
G1 X108.643 Y111.816 E43.28457
G1 X108.626 Y111.442 E43.30703
G0 F9000 X109.027 Y111.452
G0 X109.805 Y111.386
G0 X110.201 Y111.439
G1 F600 X110.213 Y111.680 E43.32151
G1 X110.264 Y111.901 E43.33512
G1 X110.351 Y112.108 E43.34859
G1 X110.465 Y112.288 E43.36137
G1 X110.619 Y112.457 E43.37509
G1 X110.810 Y112.602 E43.38948
G1 X111.010 Y112.704 E43.40295
G1 X111.212 Y112.770 E43.41570
G1 X111.439 Y112.800 E43.42944
G1 X111.679 Y112.790 E43.44385
G1 X111.900 Y112.738 E43.45747
G1 X112.107 Y112.651 E43.47095
G1 X112.288 Y112.536 E43.48381
G1 X112.455 Y112.383 E43.49740
G1 X112.596 Y112.203 E43.51112
G1 X112.703 Y111.989 E43.52548
G1 X112.768 Y111.789 E43.53809
G1 X112.800 Y111.563 E43.55179
G1 X112.788 Y111.321 E43.56633
G1 X112.737 Y111.100 E43.57994
G1 X112.650 Y110.893 E43.59341
G1 X112.536 Y110.713 E43.60619
G1 X112.382 Y110.543 E43.61996
G1 X112.189 Y110.399 E43.63440
G1 X111.990 Y110.297 E43.64782
G1 X111.788 Y110.231 E43.66057
G1 X111.561 Y110.201 E43.67431
G1 X111.322 Y110.211 E43.68866
G1 X111.099 Y110.263 E43.70240
G1 X110.892 Y110.350 E43.71587
G1 X110.711 Y110.465 E43.72874
G1 X110.544 Y110.618 E43.74233
G1 X110.405 Y110.798 E43.75597
G1 X110.298 Y111.011 E43.77028
G1 X110.231 Y111.212 E43.78299
G1 X110.201 Y111.439 E43.79673
G0 F9000 X110.051 Y110.990
;TYPE:SKIN
G1 F600 X108.948 Y112.093 E43.89032
G0 F9000 X109.170 Y112.719
G1 F600 X110.149 Y112.164 E43.96167
G1 X109.740 Y113.421 E44.02710
G1 X110.748 Y112.838 E44.09697
G0 F9000 X111.399 Y113.036
G1 F600 X110.500 Y113.934 E44.17321
G0 F9000 X111.179 Y114.104
G1 F600 X114.108 Y111.175 E44.42174
G0 F9000 X113.930 Y110.505
G1 F600 X113.032 Y111.403 E44.49794
G0 F9000 X112.840 Y110.746
G1 F600 X113.426 Y109.735 E44.56478
G1 X112.163 Y110.150 E44.63072
G1 X112.719 Y109.170 E44.69833
G0 F9000 X112.100 Y108.941
G1 F600 X110.996 Y110.044 E44.79196
G0 F9000 X110.030 Y109.314
G1 F600 X109.368 Y109.975 E44.84809
G0 F9000 X108.875 Y111.317
G1 F600 X111.320 Y108.872 E45.05556
G0 F9000 X111.337 Y109.034
G0 X113.093 Y110.662
G0 X113.918 Y112.018
G0 X114.069 Y112.063
G1 F600 X112.067 Y114.064 E45.22539
;LAYER:2
M106 S255
G0 F9000 X111.685 Y114.369 Z0.500
;TYPE:WALL-OUTER
G1 F540 X111.436 Y114.374 E45.24033
G1 X111.034 Y114.337 E45.26455
G1 X110.548 Y114.211 E45.29468
G1 X110.150 Y114.037 E45.32074
G1 X109.870 Y113.867 E45.34039
G1 X109.465 Y113.528 E45.37208
G1 X109.212 Y113.239 E45.39513
G1 X109.002 Y112.919 E45.41809
G1 X108.788 Y112.450 E45.44903
G1 X108.664 Y111.939 E45.48058
G1 X108.628 Y111.549 E45.50407
G1 X108.627 Y111.445 E45.51031
G1 X108.688 Y110.914 E45.54238
G1 X108.786 Y110.557 E45.56460
G1 X108.941 Y110.195 E45.58822
G1 X109.211 Y109.763 E45.61879
G1 X109.570 Y109.374 E45.65055
G1 X109.885 Y109.124 E45.67468
G1 X110.317 Y108.884 E45.70433
G1 X110.799 Y108.715 E45.73498
G1 X111.313 Y108.632 E45.76622
G1 X111.563 Y108.627 E45.78122
G1 X111.966 Y108.664 E45.80550
G1 X112.453 Y108.790 E45.83568
G1 X112.850 Y108.964 E45.86169
G1 X113.130 Y109.134 E45.88135
G1 X113.535 Y109.473 E45.91303
G1 X113.788 Y109.762 E45.93608
G1 X113.998 Y110.082 E45.95905
G1 X114.212 Y110.551 E45.98998
G1 X114.336 Y111.062 E46.02153
G1 X114.373 Y111.452 E46.04503
G1 X114.374 Y111.556 E46.05127
G1 X114.314 Y112.085 E46.08321
G1 X114.214 Y112.445 E46.10563
G1 X114.057 Y112.809 E46.12942
G1 X113.855 Y113.146 E46.15299
G1 X113.792 Y113.235 E46.15953
