;FLAVOR:UltiGCode
;TIME:5607
;MATERIAL:8853
;MATERIAL2:0
;NOZZLE_DIAMETER:0.600000
;NOZZLE_DIAMETER2:0.600000

;Layer count: 283
;LAYER:0
M107
G0 F9000 X96.270 Y88.750 Z0.300
;TYPE:SKIRT
G1 F1800 X126.770 Y88.750 E5.49000
G1 X126.770 Y134.350 E13.69800
G1 X96.270 Y134.350 E19.18800
G1 X96.270 Y88.750 E27.39600
G10
G1 Z1.300
G0 F9000 X104.300 Y104.300
;TYPE:WALL-OUTER
G1 Z0.300
G11
G1 F1800 X118.699 Y104.300 E29.98782
G1 X118.699 Y118.700 E32.57982
G1 X104.300 Y118.700 E35.17164
G1 X104.300 Y104.300 E37.76364
G0 F9000 X104.539 Y104.963
;TYPE:SKIN
G1 F1800 X118.034 Y118.458 E41.19891
G0 F9000 X118.459 Y118.035
G1 F1800 X104.964 Y104.540 E44.63417
G0 F9000 X105.812 Y104.540
G1 F1800 X118.459 Y117.186 E47.85345
G0 F9000 X118.459 Y116.338
G1 F1800 X106.661 Y104.540 E50.85673
G0 F9000 X107.509 Y104.540
G1 F1800 X118.459 Y115.489 E53.64401
G0 F9000 X118.459 Y114.641
G1 F1800 X108.358 Y104.540 E56.21531
G0 F9000 X109.206 Y104.540
G1 F1800 X118.459 Y113.792 E58.57061
G0 F9000 X118.459 Y112.944
G1 F1800 X110.055 Y104.540 E60.70992
G0 F9000 X110.904 Y104.540
G1 F1800 X118.459 Y112.095 E62.63311
G0 F9000 X118.459 Y111.246
G1 F1800 X111.752 Y104.540 E64.34030
G0 F9000 X112.601 Y104.540
G1 F1800 X118.459 Y110.398 E65.83151
G0 F9000 X118.459 Y109.549
G1 F1800 X113.449 Y104.540 E67.10672
G0 F9000 X114.298 Y104.540
G1 F1800 X118.459 Y108.701 E68.16594
G0 F9000 X118.459 Y107.852
G1 F1800 X115.146 Y104.540 E69.00916
G0 F9000 X115.995 Y104.540
G1 F1800 X118.459 Y107.004 E69.63639
G0 F9000 X118.459 Y106.155
G1 F1800 X116.843 Y104.540 E70.04763
G0 F9000 X117.692 Y104.540
G1 F1800 X118.459 Y105.307 E70.24288
G0 F9000 X118.299 Y105.307
G0 X117.185 Y118.300
G0 X117.185 Y118.458
G1 F1800 X104.539 Y105.812 E73.46202
G0 F9000 X104.539 Y106.660
G1 F1800 X116.337 Y118.458 E76.46531
G0 F9000 X115.488 Y118.458
G1 F1800 X104.539 Y107.509 E79.25247
G0 F9000 X104.539 Y108.357
G1 F1800 X114.640 Y118.458 E81.82376
G0 F9000 X113.791 Y118.458
G1 F1800 X104.539 Y109.206 E84.17894
G0 F9000 X104.539 Y110.054
G1 F1800 X112.943 Y118.458 E86.31824
G0 F9000 X112.094 Y118.458
G1 F1800 X104.539 Y110.903 E88.24143
G0 F9000 X104.539 Y111.751
G1 F1800 X111.246 Y118.458 E89.94876
G0 F9000 X110.397 Y118.458
G1 F1800 X104.539 Y112.600 E91.43996
G0 F9000 X104.539 Y113.448
G1 F1800 X109.549 Y118.458 E92.71530
G0 F9000 X108.700 Y118.458
G1 F1800 X104.539 Y114.297 E93.77452
G0 F9000 X104.539 Y115.145
G1 F1800 X107.852 Y118.458 E94.61787
G0 F9000 X107.003 Y118.458
G1 F1800 X104.539 Y115.994 E95.24510
G0 F9000 X104.539 Y116.843
G1 F1800 X106.155 Y118.458 E95.65634
G0 F9000 X105.306 Y118.458
G1 F1800 X104.539 Y117.691 E95.85159
G0 F9000 X105.800 Y117.200
G10
G1 Z1.300
G0 X106.000 Y118.740
;TYPE:SUPPORT
G1 Z0.300
G11
G1 F1800 X106.000 Y132.010 E98.24019
G0 F9000 X106.000 Y130.950
G0 X102.000 Y130.950
G0 X102.000 Y132.010
G1 F1800 X102.000 Y91.090 E105.60579
G0 F9000 X102.000 Y92.150
G0 X106.000 Y92.150
G0 X106.000 Y91.090
G1 F1800 X106.000 Y104.260 E107.97639
G0 F9000 X106.000 Y103.200
G0 X103.159 Y103.159
G0 X103.200 Y106.000
G0 X104.259 Y106.000
G1 F1800 X98.609 Y106.000 E108.99339
G0 F9000 X99.670 Y106.000
G0 X99.670 Y110.000
G0 X98.609 Y110.000
G1 F1800 X104.259 Y110.000 E110.01039
G0 F9000 X103.200 Y110.000
G0 X103.200 Y114.000
G0 X104.259 Y114.000
G1 F1800 X98.609 Y114.000 E111.02739
G0 F9000 X99.670 Y114.000
G0 X99.670 Y118.000
G0 X98.609 Y118.000
G1 F1800 X104.259 Y118.000 E112.04439
G0 F9000 X103.200 Y118.000
G0 X103.159 Y119.841
G0 X110.000 Y119.800
G0 X110.000 Y118.740
G1 F1800 X110.000 Y132.010 E114.43299
G0 F9000 X110.000 Y130.950
G0 X114.000 Y130.950
G0 X114.000 Y132.010
G1 F1800 X114.000 Y118.740 E116.82159
G0 F9000 X114.000 Y119.800
G0 X118.000 Y119.800
G0 X118.000 Y118.740
G1 F1800 X118.000 Y132.010 E119.21019
G0 F9000 X118.000 Y130.950
G0 X122.000 Y130.950
G0 X122.000 Y132.010
G1 F1800 X122.000 Y91.090 E126.57579
G0 F9000 X122.000 Y92.150
G0 X123.370 Y94.000
G0 X124.429 Y94.000
G1 F1800 X98.609 Y94.000 E131.22339
G0 F9000 X99.670 Y94.000
G0 X99.670 Y98.000
G0 X98.609 Y98.000
G1 F1800 X124.429 Y98.000 E135.87099
G0 F9000 X123.370 Y98.000
G0 X123.370 Y102.000
G0 X124.429 Y102.000
G1 F1800 X98.609 Y102.000 E140.51859
G0 F9000 X99.670 Y102.000
G0 X110.000 Y103.200
G0 X110.000 Y104.260
G1 F1800 X110.000 Y91.090 E142.88919
G0 F9000 X110.000 Y92.150
G0 X114.000 Y92.150
G0 X114.000 Y91.090
G1 F1800 X114.000 Y104.260 E145.25979
G0 F9000 X114.000 Y103.200
G0 X118.000 Y103.200
G0 X118.000 Y104.260
G1 F1800 X118.000 Y91.090 E147.63039
G0 F9000 X118.000 Y92.150
G0 X119.840 Y103.159
G0 X119.799 Y106.000
G0 X118.738 Y106.000
G1 F1800 X124.429 Y106.000 E148.65477
G0 F9000 X123.370 Y106.000
G0 X123.370 Y110.000
G0 X124.429 Y110.000
G1 F1800 X118.738 Y110.000 E149.67915
G0 F9000 X119.799 Y110.000
G0 X119.799 Y114.000
G0 X118.738 Y114.000
G1 F1800 X124.429 Y114.000 E150.70353
G0 F9000 X123.370 Y114.000
G0 X123.370 Y118.000
G0 X124.429 Y118.000
G1 F1800 X118.738 Y118.000 E151.72791
G0 F9000 X119.799 Y118.000
G0 X123.370 Y122.000
G0 X124.429 Y122.000
G1 F1800 X98.609 Y122.000 E156.37551
G0 F9000 X99.670 Y122.000
G0 X99.670 Y126.000
G0 X98.609 Y126.000
G1 F1800 X124.429 Y126.000 E161.02311
G0 F9000 X123.370 Y126.000
G0 X123.370 Y130.000
G0 X124.429 Y130.000
G1 F1800 X98.609 Y130.000 E165.67071
;LAYER:1
M106 S63
G10
G1 Z1.300
G0 F9000 X104.300 Y118.700 Z0.400
;TYPE:WALL-OUTER
G1 Z0.400
G11
G1 F1800 X104.300 Y104.300 E166.53471
G1 X118.699 Y104.300 E167.39865
G1 X118.699 Y118.700 E168.26265
G1 X104.300 Y118.700 E169.12659
G0 F9000 X104.540 Y118.198
;TYPE:SKIN
G1 F1800 X118.199 Y104.539 E170.28559
G0 F9000 X118.458 Y105.128
G1 F1800 X105.127 Y118.459 E171.41676
G0 F9000 X105.976 Y118.459
G1 F1800 X118.458 Y105.976 E172.47594
G0 F9000 X118.458 Y106.825
G1 F1800 X106.824 Y118.459 E173.46312
G0 F9000 X107.673 Y118.459
G1 F1800 X118.458 Y107.673 E174.37830
G0 F9000 X118.458 Y108.522
G1 F1800 X108.521 Y118.459 E175.22148
G0 F9000 X109.370 Y118.459
G1 F1800 X118.458 Y109.371 E175.99262
G0 F9000 X118.458 Y110.219
G1 F1800 X110.218 Y118.459 E176.69181
G0 F9000 X111.067 Y118.459
G1 F1800 X118.458 Y111.068 E177.31895
G0 F9000 X118.458 Y111.916
G1 F1800 X111.915 Y118.459 E177.87415
G0 F9000 X112.764 Y118.459
G1 F1800 X118.458 Y112.765 E178.35730
G0 F9000 X118.458 Y113.613
G1 F1800 X113.612 Y118.459 E178.76850
G0 F9000 X114.461 Y118.459
G1 F1800 X118.458 Y114.462 E179.10765
G0 F9000 X118.458 Y115.310
G1 F1800 X115.310 Y118.459 E179.37481
G0 F9000 X116.158 Y118.459
G1 F1800 X118.458 Y116.159 E179.56997
G0 F9000 X118.458 Y117.007
G1 F1800 X117.007 Y118.459 E179.69314
G0 F9000 X117.855 Y118.459
G1 F1800 X118.458 Y117.856 E179.74430
G0 F9000 X118.299 Y117.856
G0 X117.350 Y104.700
G0 X117.350 Y104.539
G1 F1800 X104.540 Y117.350 E180.83131
G0 F9000 X104.540 Y116.501
G1 F1800 X116.502 Y104.539 E181.84632
G0 F9000 X115.653 Y104.539
G1 F1800 X104.540 Y115.652 E182.78929
G0 F9000 X104.540 Y114.804
G1 F1800 X114.805 Y104.539 E183.66030
G0 F9000 X113.956 Y104.539
G1 F1800 X104.540 Y113.955 E184.45928
G0 F9000 X104.540 Y113.107
G1 F1800 X113.108 Y104.539 E185.18630
G0 F9000 X112.259 Y104.539
G1 F1800 X104.540 Y112.258 E185.84127
G0 F9000 X104.540 Y111.410
G1 F1800 X111.411 Y104.539 E186.42430
G0 F9000 X110.562 Y104.539
G1 F1800 X104.540 Y110.561 E186.93528
G0 F9000 X104.540 Y109.713
G1 F1800 X109.713 Y104.539 E187.37427
G0 F9000 X108.865 Y104.539
G1 F1800 X104.540 Y108.864 E187.74126
G0 F9000 X104.540 Y108.016
G1 F1800 X108.016 Y104.539 E188.03625
G0 F9000 X107.168 Y104.539
G1 F1800 X104.540 Y107.167 E188.25924
G0 F9000 X104.540 Y106.319
G1 F1800 X106.319 Y104.539 E188.41024
G0 F9000 X105.471 Y104.539
G1 F1800 X104.540 Y105.470 E188.48923
G0 F9000 X105.800 Y105.800
G10
G1 Z1.400
G0 X106.000 Y103.360
;TYPE:SUPPORT
G1 Z0.400
G11
G1 F1800 X106.000 Y91.990 E189.17143
G0 F9000 X106.000 Y92.150
G0 X102.000 Y92.150
G0 X102.000 Y91.990
G1 F1800 X102.000 Y131.110 E191.51863
G0 F9000 X102.000 Y130.950
G0 X106.000 Y130.950
G0 X106.000 Y131.110
G1 F1800 X106.000 Y119.640 E192.20683
G0 F9000 X106.000 Y119.800
G0 X110.000 Y119.800
G0 X110.000 Y119.640
G1 F1800 X110.000 Y131.110 E192.89503
G0 F9000 X110.000 Y130.950
G0 X114.000 Y130.950
G0 X114.000 Y131.110
G1 F1800 X114.000 Y119.640 E193.58323
G0 F9000 X114.000 Y119.800
G0 X118.000 Y119.800
G0 X118.000 Y119.640
G1 F1800 X118.000 Y131.110 E194.27143
G0 F9000 X118.000 Y130.950
G0 X122.000 Y130.950
G0 X122.000 Y131.110
G1 F1800 X122.000 Y91.990 E196.61863
G0 F9000 X122.000 Y92.150
G0 X118.000 Y92.150
G0 X118.000 Y91.990
G1 F1800 X118.000 Y103.360 E197.30083
G0 F9000 X118.000 Y103.200
G0 X114.000 Y103.200
G0 X114.000 Y103.360
G1 F1800 X114.000 Y91.990 E197.98303
G0 F9000 X114.000 Y92.150
G0 X110.000 Y92.150
G0 X110.000 Y91.990
G1 F1800 X110.000 Y103.360 E198.66523
;LAYER:2
M106 S127
G0 F9000 X110.000 Y104.700 Z0.500
G0 X104.700 Y104.610
G0 X104.300 Y104.300
;TYPE:WALL-OUTER
G1 F1800 X118.699 Y104.300 E199.52917
G1 X118.699 Y118.700 E200.39317
G1 X104.300 Y118.700 E201.25711
G1 X104.300 Y104.300 E202.12111
G0 F9000 X104.539 Y104.963
;TYPE:SKIN
G1 F1800 X118.034 Y118.458 E203.26620
G0 F9000 X118.459 Y118.035
G1 F1800 X104.964 Y104.540 E204.41129
G0 F9000 X105.812 Y104.540
G1 F1800 X118.459 Y117.186 E205.48438
G0 F9000 X118.459 Y116.338
G1 F1800 X106.661 Y104.540 E206.48548
G0 F9000 X107.509 Y104.540
G1 F1800 X118.459 Y115.489 E207.41457
G0 F9000 X118.459 Y114.641
G1 F1800 X108.358 Y104.540 E208.27167
G0 F9000 X109.206 Y104.540
G1 F1800 X118.459 Y113.792 E209.05677
G0 F9000 X118.459 Y112.944
G1 F1800 X110.055 Y104.540 E209.76987
G0 F9000 X110.904 Y104.540
G1 F1800 X118.459 Y112.095 E210.41094
G0 F9000 X118.459 Y111.246
G1 F1800 X111.752 Y104.540 E210.98000
G0 F9000 X112.601 Y104.540
G1 F1800 X118.459 Y110.398 E211.47707
G0 F9000 X118.459 Y109.549
G1 F1800 X113.449 Y104.540 E211.90214
G0 F9000 X114.298 Y104.540
G1 F1800 X118.459 Y108.701 E212.25521
G0 F9000 X118.459 Y107.852
G1 F1800 X115.146 Y104.540 E212.53629
G0 F9000 X115.995 Y104.540
G1 F1800 X118.459 Y107.004 E212.74536
G0 F9000 X118.459 Y106.155
G1 F1800 X116.843 Y104.540 E212.88244
G0 F9000 X117.692 Y104.540
G1 F1800 X118.459 Y105.307 E212.94753
G0 F9000 X118.299 Y105.307
G0 X117.185 Y118.300
G0 X117.185 Y118.458
G1 F1800 X104.539 Y105.812 E214.02058
G0 F9000 X104.539 Y106.660
G1 F1800 X116.337 Y118.458 E215.02167
G0 F9000 X115.488 Y118.458
G1 F1800 X104.539 Y107.509 E215.95072
G0 F9000 X104.539 Y108.357
G1 F1800 X114.640 Y118.458 E216.80782
G0 F9000 X113.791 Y118.458
G1 F1800 X104.539 Y109.206 E217.59288
G0 F9000 X104.539 Y110.054
G1 F1800 X112.943 Y118.458 E218.30598
G0 F9000 X112.094 Y118.458
G1 F1800 X104.539 Y110.903 E218.94704
G0 F9000 X104.539 Y111.751
G1 F1800 X111.246 Y118.458 E219.51615
G0 F9000 X110.397 Y118.458
G1 F1800 X104.539 Y112.600 E220.01322
G0 F9000 X104.539 Y113.448
G1 F1800 X109.549 Y118.458 E220.43833
G0 F9000 X108.700 Y118.458
G1 F1800 X104.539 Y114.297 E220.79141
G0 F9000 X104.539 Y115.145
G1 F1800 X107.852 Y118.458 E221.07252
G0 F9000 X107.003 Y118.458
G1 F1800 X104.539 Y115.994 E221.28160
G0 F9000 X104.539 Y116.843
G1 F1800 X106.155 Y118.458 E221.41868
G0 F9000 X105.306 Y118.458
G1 F1800 X104.539 Y117.691 E221.48376
G0 F9000 X105.800 Y117.200
G10
G1 Z1.500
G0 X106.000 Y119.640
;TYPE:SUPPORT
G1 Z0.500
G11
G1 F1800 X106.000 Y131.110 E222.17196
G0 F9000 X106.000 Y130.950
G0 X102.000 Y130.950
G0 X102.000 Y131.110
G1 F1800 X102.000 Y91.990 E224.51916
G0 F9000 X102.000 Y92.150
G0 X106.000 Y92.150
G0 X106.000 Y91.990
G1 F1800 X106.000 Y103.360 E225.20136
G0 F9000 X106.000 Y103.200
G0 X110.000 Y103.200
G0 X110.000 Y103.360
G1 F1800 X110.000 Y91.990 E225.88356
G0 F9000 X110.000 Y92.150
G0 X114.000 Y92.150
G0 X114.000 Y91.990
G1 F1800 X114.000 Y103.360 E226.56576
G0 F9000 X114.000 Y103.200
G0 X118.000 Y103.200
G0 X118.000 Y103.360
G1 F1800 X118.000 Y91.990 E227.24796
G0 F9000 X118.000 Y92.150
G0 X122.000 Y92.150
G0 X122.000 Y91.990
G1 F1800 X122.000 Y131.110 E229.59516
G0 F9000 X122.000 Y130.950
G0 X118.000 Y130.950
G0 X118.000 Y131.110
G1 F1800 X118.000 Y119.640 E230.28336
G0 F9000 X118.000 Y119.800
G0 X114.000 Y119.800
G0 X114.000 Y119.640
G1 F1800 X114.000 Y131.110 E230.97156
G0 F9000 X114.000 Y130.950
G0 X110.000 Y130.950
G0 X110.000 Y131.110
G1 F1800 X110.000 Y119.640 E231.65976
;LAYER:3
G0 F9000 X110.000 Y118.300 Z0.600
G0 X104.610 Y118.300
G0 X104.300 Y118.700
;TYPE:WALL-OUTER
G1 F1800 X104.300 Y104.300 E232.52376
G1 X118.699 Y104.300 E233.38770
G1 X118.699 Y118.700 E234.25170
G1 X104.300 Y118.700 E235.11564
G0 F9000 X104.540 Y118.198
;TYPE:SKIN
G1 F1800 X118.199 Y104.539 E236.27465
G0 F9000 X118.458 Y105.128
G1 F1800 X105.127 Y118.459 E237.40582
G0 F9000 X105.976 Y118.459
G1 F1800 X118.458 Y105.976 E238.46499
G0 F9000 X118.458 Y106.825
G1 F1800 X106.824 Y118.459 E239.45217
G0 F9000 X107.673 Y118.459
G1 F1800 X118.458 Y107.673 E240.36735
G0 F9000 X118.458 Y108.522
G1 F1800 X108.521 Y118.459 E241.21053
G0 F9000 X109.370 Y118.459
G1 F1800 X118.458 Y109.371 E241.98168
G0 F9000 X118.458 Y110.219
G1 F1800 X110.218 Y118.459 E242.68086
G0 F9000 X111.067 Y118.459
G1 F1800 X118.458 Y111.068 E243.30801
G0 F9000 X118.458 Y111.916
G1 F1800 X111.915 Y118.459 E243.86320
G0 F9000 X112.764 Y118.459
G1 F1800 X118.458 Y112.765 E244.34636
G0 F9000 X118.458 Y113.613
G1 F1800 X113.612 Y118.459 E244.75755
G0 F9000 X114.461 Y118.459
G1 F1800 X118.458 Y114.462 E245.09671
G0 F9000 X118.458 Y115.310
G1 F1800 X115.310 Y118.459 E245.36387
G0 F9000 X116.158 Y118.459
G1 F1800 X118.458 Y116.159 E245.55903
G0 F9000 X118.458 Y117.007
G1 F1800 X117.007 Y118.459 E245.68219
G0 F9000 X117.855 Y118.459
G1 F1800 X118.458 Y117.856 E245.73336
G0 F9000 X118.299 Y117.856
G0 X117.350 Y104.700
G0 X117.350 Y104.539
G1 F1800 X104.540 Y117.350 E246.82037
G0 F9000 X104.540 Y116.501
G1 F1800 X116.502 Y104.539 E247.83538
G0 F9000 X115.653 Y104.539
G1 F1800 X104.540 Y115.652 E248.77835
G0 F9000 X104.540 Y114.804
G1 F1800 X114.805 Y104.539 E249.64936
G0 F9000 X113.956 Y104.539
G1 F1800 X104.540 Y113.955 E250.44833
G0 F9000 X104.540 Y113.107
G1 F1800 X113.108 Y104.539 E251.17535
G0 F9000 X112.259 Y104.539
G1 F1800 X104.540 Y112.258 E251.83033
G0 F9000 X104.540 Y111.410
G1 F1800 X111.411 Y104.539 E252.41336
G0 F9000 X110.562 Y104.539
G1 F1800 X104.540 Y110.561 E252.92434
G0 F9000 X104.540 Y109.713
G1 F1800 X109.713 Y104.539 E253.36332
G0 F9000 X108.865 Y104.539
G1 F1800 X104.540 Y108.864 E253.73031
G0 F9000 X104.540 Y108.016
G1 F1800 X108.016 Y104.539 E254.02530
G0 F9000 X107.168 Y104.539
G1 F1800 X104.540 Y107.167 E254.24830
G0 F9000 X104.540 Y106.319
G1 F1800 X106.319 Y104.539 E254.39929
G0 F9000 X105.471 Y104.539
G1 F1800 X104.540 Y105.470 E254.47829
G0 F9000 X105.800 Y105.800
G10
G1 Z1.600
G0 X106.000 Y103.360
;TYPE:SUPPORT
G1 Z0.600
G11
G1 F1800 X106.000 Y91.990 E255.16049
G0 F9000 X106.000 Y92.150
G0 X102.000 Y92.150
G0 X102.000 Y91.990
G1 F1800 X102.000 Y131.110 E257.50769
G0 F9000 X102.000 Y130.950
G0 X106.000 Y130.950
G0 X106.000 Y131.110
G1 F1800 X106.000 Y119.640 E258.19589
G0 F9000 X106.000 Y119.800
G0 X110.000 Y119.800
G0 X110.000 Y119.640
G1 F1800 X110.000 Y131.110 E258.88409
G0 F9000 X110.000 Y130.950
G0 X114.000 Y130.950
G0 X114.000 Y131.110
G1 F1800 X114.000 Y119.640 E259.57229
G0 F9000 X114.000 Y119.800
G0 X118.000 Y119.800
G0 X118.000 Y119.640
G1 F1800 X118.000 Y131.110 E260.26049
G0 F9000 X118.000 Y130.950
G0 X122.000 Y130.950
G0 X122.000 Y131.110
G1 F1800 X122.000 Y91.990 E262.60769
G0 F9000 X122.000 Y92.150
G0 X118.000 Y92.150
G0 X118.000 Y91.990
G1 F1800 X118.000 Y103.360 E263.28989
G0 F9000 X118.000 Y103.200
G0 X114.000 Y103.200
G0 X114.000 Y103.360
